<?xml version="1.0" encoding="UTF-8"?>
<map version="1.10" tiledversion="1.11.2" orientation="orthogonal" renderorder="right-down" width="256" height="88" tilewidth="32" tileheight="32" infinite="0" nextlayerid="2" nextobjectid="1">
 <editorsettings>
  <export target="map.csv" format="csv"/>
 </editorsettings>
 <tileset firstgid="1" source="map.tsx"/>
 <layer id="1" name="タイルレイヤー1" width="256" height="88">
  <data encoding="csv">
6,6,6,6,6,6,6,6,6,6,6,6,6,6,6,6,6,6,6,6,6,6,6,6,6,6,6,6,6,6,6,6,6,6,6,6,6,6,6,6,6,6,6,6,6,6,6,6,6,6,6,6,6,6,6,6,6,6,6,6,6,6,6,6,6,6,6,6,6,6,6,6,6,6,6,6,6,6,6,6,6,6,6,6,6,6,6,6,6,6,6,6,6,6,6,6,6,6,6,6,6,6,6,6,6,6,6,6,6,6,6,6,6,6,6,6,6,6,6,6,6,6,6,6,6,6,6,6,6,6,6,6,6,6,6,6,6,6,6,6,6,6,6,6,6,6,6,6,6,6,6,6,6,6,6,6,6,6,6,6,6,6,6,6,6,6,6,6,6,6,6,6,6,6,6,6,6,6,6,6,6,6,6,6,6,6,6,6,6,6,6,6,6,6,6,6,6,6,6,6,6,6,6,6,6,6,6,6,6,6,6,6,6,6,6,6,6,6,6,6,6,6,6,6,9,9,9,9,9,9,9,9,9,9,9,9,9,9,9,9,9,6,6,6,6,6,6,6,6,6,6,6,6,6,6,9,
6,6,6,6,6,6,6,6,6,6,6,6,6,6,6,6,6,6,6,6,6,6,6,6,6,6,5,7,5,7,6,6,6,6,6,6,6,6,6,6,6,6,6,6,6,6,6,6,6,7,5,6,6,6,6,6,6,6,6,6,6,7,5,6,6,6,6,6,6,6,6,6,6,6,6,6,6,6,6,6,6,6,6,6,6,6,6,6,6,6,6,6,6,6,6,6,6,6,6,6,6,6,6,7,5,6,6,6,6,6,6,6,6,6,6,6,6,6,6,6,6,6,6,6,6,6,6,6,6,6,6,6,6,6,6,7,5,6,6,6,6,6,6,6,6,6,6,6,6,6,6,6,6,6,6,6,6,6,6,6,6,6,6,6,6,6,6,6,6,6,6,6,6,6,6,6,6,6,6,6,6,6,6,6,6,6,6,6,6,6,6,6,6,6,6,6,6,6,6,6,6,6,7,5,6,6,6,6,6,6,6,6,6,6,7,5,6,6,6,6,6,6,6,6,9,9,9,9,9,9,9,9,9,9,9,9,9,9,9,9,9,6,6,6,6,6,6,6,6,6,6,6,6,6,6,9,
6,6,6,7,1,31,1,5,6,6,6,6,6,6,6,6,6,6,5,6,6,6,6,6,6,1,1,1,1,1,6,6,6,6,6,6,6,6,6,6,6,6,7,5,6,6,6,6,6,1,1,5,6,6,6,6,6,6,6,6,7,1,1,6,6,6,6,6,6,6,6,6,6,6,7,1,1,1,1,5,6,6,7,1,1,1,1,1,1,1,1,1,1,31,5,6,6,6,6,6,7,5,7,1,1,5,6,6,6,6,6,6,6,6,6,6,6,6,6,6,6,6,6,6,6,6,6,6,6,6,6,6,7,5,7,1,1,5,6,6,6,6,6,6,6,7,5,7,1,1,1,1,1,1,1,1,1,5,6,6,6,6,7,1,1,1,1,1,1,1,1,1,1,1,5,6,6,6,7,1,1,1,1,1,1,1,1,1,1,1,5,6,6,6,6,6,6,6,6,7,1,1,1,1,6,6,7,1,1,1,5,6,6,7,1,1,1,1,5,6,6,6,6,6,6,6,6,6,6,6,6,6,6,6,6,9,9,9,9,9,9,6,1,1,1,1,1,1,1,1,1,1,1,1,1,9,
6,6,1,1,1,1,1,1,6,6,6,6,6,6,6,6,6,7,1,6,6,6,6,6,6,1,1,1,31,1,5,6,6,6,6,6,6,6,6,6,6,6,1,1,5,6,6,6,6,1,1,1,5,6,6,6,6,6,6,7,1,1,1,6,6,6,6,6,6,6,6,6,6,7,1,1,1,1,1,1,6,7,1,1,1,1,1,1,1,3,4,1,1,1,1,6,6,6,6,7,1,1,1,1,1,1,6,6,6,6,6,6,6,6,6,6,6,6,6,7,5,6,6,6,6,6,6,6,6,6,6,7,1,1,1,1,1,1,6,6,6,6,6,6,6,1,1,1,1,2,1,1,1,1,1,1,1,1,5,6,6,7,1,1,1,1,1,1,1,1,1,1,1,1,1,6,6,7,1,1,1,1,1,1,1,1,1,1,1,1,1,1,1,1,1,1,1,1,6,1,1,1,1,1,5,7,1,1,1,1,1,5,7,1,1,1,1,1,1,5,6,6,6,6,6,1,1,1,1,1,1,1,6,6,6,9,9,9,9,9,9,6,1,8,1,8,1,8,1,8,1,8,1,8,1,9,
6,6,1,8,1,8,1,1,1,1,1,1,1,1,1,1,1,1,1,5,7,5,6,6,7,1,1,1,1,1,1,5,6,6,6,6,6,6,6,6,6,7,1,1,1,5,6,6,7,1,1,1,1,5,6,6,6,6,7,1,1,1,1,5,6,6,6,6,7,5,6,6,7,1,1,1,1,1,1,1,1,1,1,8,1,8,1,1,3,6,6,4,1,1,1,5,7,5,7,1,1,1,1,1,1,1,5,7,5,7,5,6,6,6,6,6,6,6,7,1,1,5,6,6,5,7,6,6,7,5,7,1,1,1,1,1,1,1,7,5,7,5,7,5,7,1,1,1,2,1,1,1,1,1,1,1,1,1,1,1,1,1,1,1,8,1,8,1,8,1,8,1,1,1,1,5,7,1,1,30,1,30,1,30,1,30,1,30,1,30,1,3,6,6,6,6,4,1,7,1,1,1,1,1,1,1,1,1,1,1,1,1,1,1,1,1,1,1,1,1,5,6,6,6,6,1,8,1,8,1,8,1,6,6,6,9,9,9,9,9,9,6,1,1,1,1,1,1,1,1,1,1,1,1,1,9,
6,6,1,1,1,1,1,1,1,1,1,1,1,1,1,1,1,1,1,1,1,1,1,1,1,1,1,1,1,1,1,1,1,1,1,1,1,1,1,1,1,1,1,1,1,1,1,1,1,1,1,1,1,1,1,1,1,1,1,1,1,1,1,1,1,1,1,1,1,1,5,7,1,31,1,1,1,1,1,1,1,1,1,1,31,1,1,1,6,6,6,6,1,31,1,1,1,1,1,1,1,1,31,1,1,1,1,1,1,1,1,1,1,1,1,1,1,1,1,1,1,1,1,1,1,1,1,1,1,1,1,1,1,1,31,1,1,1,1,1,1,1,1,1,1,1,1,2,1,2,1,2,1,2,1,2,1,31,1,1,1,1,1,1,1,31,1,1,1,31,1,1,1,1,1,1,1,1,1,1,31,1,1,1,31,1,1,1,31,1,1,6,6,6,6,6,6,1,1,1,1,31,1,1,1,1,1,1,1,31,1,1,1,1,1,1,1,31,1,1,1,1,5,6,6,1,1,1,1,1,1,1,6,6,6,9,9,9,9,9,9,6,1,8,1,8,1,8,1,8,1,8,1,8,1,9,
6,6,4,4,4,4,4,29,4,4,4,4,4,4,4,4,4,1,1,1,1,1,1,1,1,31,1,1,1,1,1,3,4,4,4,29,4,4,4,4,4,1,1,1,1,1,1,1,1,1,1,1,3,4,4,4,4,4,29,4,4,4,1,1,1,1,1,1,1,1,1,1,1,1,1,1,1,1,31,1,1,1,1,8,1,8,1,1,5,6,6,7,1,1,1,3,4,3,4,1,1,1,1,1,1,1,3,4,3,4,3,4,4,4,4,4,29,4,4,1,1,3,4,4,4,3,4,4,4,3,4,4,1,1,1,1,1,1,3,4,3,4,3,4,4,1,1,1,2,1,1,1,1,1,1,1,1,1,1,1,1,1,1,1,8,1,8,1,8,1,8,1,1,1,1,1,1,1,1,30,1,30,1,30,1,30,1,30,1,30,1,6,6,6,6,6,6,29,4,1,1,1,1,1,1,1,1,1,1,1,1,1,1,1,1,1,1,1,1,1,1,1,1,6,6,1,1,1,1,1,1,1,6,6,6,9,9,9,9,9,9,6,1,1,1,1,1,1,1,1,1,1,1,1,1,9,
6,6,6,6,6,6,6,29,6,6,6,6,6,6,6,6,6,4,1,1,1,1,1,1,1,1,1,1,1,1,3,6,6,6,6,29,6,6,6,6,6,4,1,1,1,1,31,1,1,1,1,3,6,6,6,6,6,6,29,6,6,6,4,4,4,1,1,1,31,1,1,1,1,31,1,1,1,1,1,1,1,1,1,1,1,1,1,1,1,1,1,1,1,1,1,6,6,6,6,4,1,1,1,1,1,1,6,6,6,6,6,6,6,6,6,6,29,6,6,4,3,6,6,6,6,6,6,6,6,6,6,6,4,3,4,1,1,3,6,6,6,6,6,6,6,1,1,1,1,2,1,1,1,1,1,1,1,1,3,6,6,4,1,1,1,1,1,1,1,1,1,1,1,1,1,3,4,1,1,1,1,1,1,1,1,1,1,1,1,1,1,6,6,6,6,6,6,29,6,1,1,1,1,1,3,4,1,1,1,1,1,4,1,1,1,1,1,1,1,1,1,1,1,6,6,4,1,1,1,1,1,1,6,6,6,9,9,9,9,9,9,6,1,8,1,8,1,8,1,8,1,8,1,8,1,9,
6,6,6,6,6,6,6,29,6,6,6,6,6,6,6,6,6,6,1,1,1,1,1,1,1,1,1,1,1,1,6,6,6,6,6,29,6,6,6,6,6,6,4,1,1,1,1,1,1,1,3,6,6,6,6,6,6,6,29,6,6,6,6,6,6,1,1,1,1,1,1,1,1,1,1,1,1,1,1,3,4,3,4,1,1,1,1,1,1,1,1,1,1,31,3,6,6,6,6,6,4,3,4,1,1,3,6,6,6,6,6,6,6,6,6,6,29,6,6,6,6,6,6,6,6,6,6,6,6,6,6,6,6,6,6,4,3,6,6,6,6,6,6,6,6,4,1,1,1,1,1,1,1,1,1,1,1,3,6,6,6,6,4,1,1,1,1,1,1,1,1,1,1,1,1,6,6,4,1,1,1,1,1,1,1,1,1,1,1,1,3,6,6,6,6,6,6,29,6,4,1,1,1,1,6,6,4,1,1,1,3,6,4,1,1,1,1,1,1,1,1,1,3,6,6,6,4,4,4,29,4,4,6,6,6,9,9,9,9,9,9,6,1,1,1,1,1,1,1,1,1,1,1,1,1,9,
6,6,6,6,6,6,6,29,6,6,6,6,6,6,6,6,6,6,4,4,4,4,4,29,4,4,4,4,4,3,6,6,6,6,6,29,6,6,6,6,6,6,6,4,4,4,4,4,4,4,6,6,6,6,6,6,6,6,29,6,6,6,6,6,6,4,4,29,4,4,3,4,4,4,4,29,4,4,4,6,6,6,6,4,4,4,4,4,4,4,4,4,4,4,6,6,6,6,6,6,6,6,6,4,3,6,6,6,6,6,6,6,6,6,6,6,29,6,6,6,6,6,6,6,6,6,6,6,6,6,6,6,6,6,6,6,6,6,6,6,6,6,6,6,6,6,29,4,4,4,4,4,4,4,4,4,4,6,6,6,6,6,6,4,4,4,4,4,4,4,4,4,4,29,3,6,6,6,4,4,4,4,4,29,4,4,4,4,4,4,6,6,6,6,6,6,6,29,6,6,4,4,3,3,6,6,6,4,4,4,6,6,6,4,4,4,4,4,4,4,4,29,6,6,6,6,6,6,6,29,6,6,6,6,6,9,9,9,9,9,9,6,4,4,4,4,4,4,29,4,4,4,4,4,4,9,
6,6,6,6,6,6,6,29,6,6,6,6,6,6,6,6,6,6,6,6,6,6,6,29,6,6,6,6,6,6,6,6,6,6,6,29,6,6,6,6,6,6,6,6,6,6,6,6,6,6,6,6,6,6,6,6,6,6,29,6,6,6,6,6,6,6,6,29,6,6,6,6,6,6,6,29,6,6,6,6,6,6,6,6,6,6,6,6,6,6,6,6,6,6,6,6,6,6,6,6,6,6,6,6,6,6,6,6,6,6,6,6,6,6,6,6,29,6,6,6,6,6,6,6,6,6,6,6,6,6,6,6,6,6,6,6,6,6,6,6,6,6,6,6,6,6,29,6,6,6,6,6,6,6,6,6,6,6,6,6,6,6,6,6,6,6,6,6,6,6,6,6,6,29,6,6,6,6,6,6,6,6,6,29,6,6,6,6,6,6,6,6,6,6,6,6,6,29,6,6,6,6,6,6,6,6,6,6,6,6,6,6,6,6,6,6,6,6,6,6,6,29,6,6,6,6,6,6,6,29,6,6,6,6,6,9,9,9,9,9,9,6,6,6,6,6,6,6,29,6,6,6,6,6,6,9,
6,6,6,6,6,6,6,29,6,6,6,6,6,6,6,6,6,6,6,6,6,6,6,29,6,6,6,6,6,6,6,6,6,6,6,29,6,6,6,6,6,6,6,6,6,6,6,6,6,6,6,6,6,6,6,6,6,6,29,6,6,6,6,6,6,6,6,29,6,6,6,6,6,6,6,29,6,6,6,6,6,6,6,6,6,6,6,6,6,6,6,6,6,6,6,6,6,6,6,6,6,6,6,6,6,6,6,6,6,6,6,6,6,6,6,6,29,6,6,6,6,6,6,6,6,6,6,6,6,6,6,6,6,6,6,6,6,6,6,6,6,6,6,6,6,6,29,6,6,6,6,6,6,6,6,6,6,6,6,6,6,6,6,6,6,6,6,6,6,6,6,6,6,29,6,6,6,6,6,6,6,6,6,29,6,6,6,6,6,6,6,6,6,6,6,6,6,29,6,6,6,6,6,6,6,6,6,6,6,6,6,6,6,6,6,6,6,6,6,6,6,29,6,6,6,6,6,6,6,29,6,6,6,6,6,6,6,6,6,6,6,6,6,6,6,6,6,6,29,6,6,6,6,6,6,9,
6,6,6,6,6,6,6,29,6,6,6,6,6,6,6,6,6,6,6,6,6,6,6,29,6,6,6,6,6,6,6,6,6,6,6,29,6,6,6,6,6,6,6,6,6,6,6,6,6,6,6,6,6,6,6,6,6,6,29,6,6,6,6,6,6,5,7,29,6,6,6,6,6,6,6,29,6,6,6,6,6,6,6,6,6,6,6,6,7,5,6,6,6,6,6,6,6,6,7,5,6,6,6,6,6,6,6,6,6,6,6,6,7,5,6,6,29,6,6,6,6,6,6,6,6,6,6,6,6,6,6,6,6,6,6,6,6,6,6,6,6,6,6,6,6,6,29,6,6,6,6,6,6,6,6,6,6,6,6,6,6,6,6,6,6,6,6,6,6,6,6,6,6,29,6,6,6,6,6,6,6,6,6,29,6,6,6,6,6,6,6,6,6,6,6,6,6,29,6,6,6,6,6,6,6,6,6,6,6,6,6,6,6,6,6,6,6,6,6,6,6,29,6,6,6,6,6,6,6,29,6,6,6,6,6,6,6,6,6,6,6,6,6,6,6,6,6,6,29,6,6,6,6,6,6,9,
6,6,7,1,1,1,1,1,1,1,1,1,1,1,1,1,1,1,1,1,1,1,1,1,1,1,1,1,1,1,5,6,6,6,6,29,6,6,7,1,1,1,1,1,1,1,1,1,1,1,1,5,6,6,6,6,6,6,29,6,6,6,7,1,1,1,1,1,1,1,1,1,1,1,1,1,1,1,5,6,6,6,6,6,6,6,6,6,1,1,1,1,1,1,5,7,5,7,1,1,5,7,1,5,6,6,6,6,6,6,7,1,1,1,5,6,29,6,6,6,6,6,6,6,6,6,6,6,6,6,6,6,6,6,6,6,6,6,6,6,6,6,6,6,6,6,29,6,6,6,6,6,6,6,6,6,6,6,6,6,6,6,6,6,6,6,6,6,6,6,6,6,6,29,6,6,6,6,7,1,1,1,1,1,1,1,1,1,1,5,6,6,6,7,1,1,1,1,1,1,1,6,1,1,1,1,1,1,1,1,1,1,5,6,6,6,6,6,6,6,6,29,6,6,6,6,6,6,6,29,6,6,6,7,1,1,1,1,1,1,1,1,1,1,1,1,1,1,1,1,1,1,1,1,6,9,
6,7,1,1,2,1,1,1,1,1,1,8,1,1,1,8,8,1,1,1,1,8,1,1,1,31,1,1,2,1,1,6,6,6,6,29,6,7,1,1,1,8,1,8,1,8,1,8,8,1,1,1,5,6,6,6,6,6,29,6,6,7,1,1,1,1,1,1,1,1,1,1,1,1,1,1,1,1,1,6,6,6,6,6,6,6,6,6,1,1,1,1,1,1,1,1,1,1,1,1,1,1,1,1,6,6,6,6,6,7,1,1,1,1,1,6,29,6,6,6,6,6,6,6,6,6,6,6,6,6,6,6,6,6,6,6,6,6,6,6,6,6,6,6,6,6,29,6,6,6,6,6,6,6,6,6,6,6,6,6,6,6,6,6,6,6,6,6,6,6,6,6,6,29,6,6,6,6,1,1,1,2,1,1,1,1,1,1,1,1,6,6,6,1,1,1,1,1,1,1,1,1,1,1,1,1,1,1,1,1,1,1,1,6,6,6,6,6,7,5,6,29,6,6,6,6,6,6,6,29,6,6,7,1,1,1,1,1,1,1,1,1,8,1,1,8,1,8,1,1,8,1,1,1,6,9,
6,1,1,1,1,1,2,1,1,1,1,8,1,1,1,8,8,1,1,31,1,8,1,1,1,1,2,1,1,1,1,6,6,6,6,29,7,1,1,1,1,8,1,8,1,8,1,8,8,1,1,1,1,5,6,6,6,6,29,6,7,1,1,1,1,1,1,30,1,1,30,1,1,30,1,1,30,1,1,5,6,6,6,6,6,6,6,7,1,1,1,1,1,1,1,1,1,1,1,1,1,1,1,1,5,6,7,5,7,1,1,1,1,1,1,5,29,6,9,11,11,11,11,11,11,11,11,11,11,11,11,11,11,11,11,11,11,11,11,11,11,11,11,11,11,11,10,11,11,11,11,11,11,11,11,11,11,11,11,11,11,11,11,11,11,11,11,6,6,6,6,6,6,29,6,6,6,7,1,2,1,1,1,1,2,1,2,1,1,1,5,6,7,1,1,1,1,1,30,1,30,1,30,1,30,1,1,1,1,1,1,1,1,6,6,6,6,6,1,1,1,1,1,1,1,1,1,1,1,1,1,1,1,1,1,1,1,1,1,1,1,1,8,1,1,8,1,8,1,1,8,1,1,1,6,9,
6,1,31,1,2,1,1,1,2,1,1,1,1,1,1,1,1,1,1,1,1,1,1,1,2,1,1,1,2,1,1,5,6,7,1,1,1,1,1,1,1,1,1,1,1,1,1,1,1,1,1,1,1,1,1,1,1,1,1,1,1,1,1,1,31,1,1,1,31,1,1,1,31,1,1,1,1,1,1,1,1,5,7,1,1,5,7,1,1,1,1,31,1,1,1,1,31,1,1,1,1,31,1,1,1,1,1,1,1,1,1,1,31,1,1,1,1,1,9,1,1,1,1,1,1,1,1,1,1,1,1,1,1,1,1,1,1,1,1,1,1,1,1,1,1,1,1,1,1,1,1,1,1,1,1,1,1,1,1,1,31,1,1,1,1,1,1,1,1,1,1,1,1,1,1,1,1,1,1,1,31,2,1,1,1,31,1,1,2,1,1,1,1,1,1,31,1,1,1,1,1,31,1,1,1,1,1,31,1,1,1,1,1,6,7,1,1,1,1,1,1,1,1,1,1,1,1,1,1,1,1,1,1,1,1,1,1,1,1,1,1,1,1,1,1,1,1,1,1,1,1,1,1,1,6,9,
6,1,1,1,1,1,2,1,1,1,1,1,1,8,1,1,31,1,1,1,8,1,1,1,1,1,2,1,1,1,1,1,1,1,1,1,1,1,1,31,1,1,8,1,8,1,1,1,1,1,1,1,1,1,1,1,1,1,1,1,1,1,1,1,1,1,1,30,1,1,30,1,1,30,1,1,30,1,1,1,1,1,1,31,1,1,1,1,1,1,1,1,1,1,1,1,1,1,1,1,1,1,1,1,1,1,1,3,4,1,1,1,1,1,1,1,1,1,9,1,1,1,1,1,1,1,1,1,1,1,1,1,31,1,1,1,1,1,1,1,1,1,1,1,1,1,1,1,1,31,1,1,1,1,1,31,1,1,1,1,1,1,1,1,1,1,1,1,1,1,1,1,1,1,1,4,4,4,1,2,1,1,1,1,2,1,2,1,1,1,3,4,4,1,1,1,1,1,30,1,30,1,30,1,30,1,1,1,1,1,1,2,1,6,1,1,1,15,12,12,12,12,12,12,12,12,12,12,12,12,12,4,4,1,1,1,1,1,1,1,1,1,1,1,8,1,1,1,8,1,1,1,8,1,6,9,
6,4,1,1,2,1,1,1,1,31,1,1,1,8,1,1,1,1,1,1,8,1,1,1,1,31,1,1,2,1,1,1,1,1,1,1,1,1,1,1,1,1,8,1,8,1,1,1,1,1,1,1,31,1,1,1,1,1,1,31,1,1,1,1,1,1,1,1,1,1,1,1,1,1,1,1,1,1,31,1,1,1,1,1,1,1,1,1,1,1,1,1,1,1,1,1,1,1,1,1,1,1,1,1,1,1,1,6,6,4,1,1,1,1,1,1,1,1,9,1,1,31,1,1,1,1,1,1,1,1,1,1,1,1,1,1,1,4,4,4,4,4,4,4,4,4,4,4,4,4,4,4,4,4,4,4,4,4,4,4,4,4,4,4,4,4,4,1,1,1,1,1,1,1,1,6,6,6,1,1,1,2,1,1,1,1,1,1,1,1,6,6,6,4,1,1,1,1,1,1,1,1,1,1,1,1,1,1,1,1,1,1,1,6,1,1,1,13,9,9,9,9,9,9,9,9,9,9,9,9,9,6,6,1,1,1,1,1,1,1,1,1,1,1,8,1,1,1,8,1,1,1,8,1,6,9,
6,6,4,1,1,1,1,1,1,1,1,1,1,1,1,1,1,1,1,1,1,1,1,1,1,1,1,1,1,1,3,6,6,4,1,1,1,1,1,1,1,1,1,1,1,1,1,1,1,1,1,1,1,1,1,1,1,1,1,1,1,1,1,1,1,1,1,1,1,1,1,1,1,1,1,1,1,1,1,1,1,3,4,1,1,3,4,1,1,1,3,4,1,1,3,4,3,4,1,1,1,1,1,1,1,1,1,6,6,6,4,1,1,1,1,1,1,1,9,1,1,1,1,1,1,1,1,1,1,1,1,1,1,1,1,1,3,6,6,6,6,6,6,6,6,6,6,6,6,6,6,6,6,6,6,6,6,6,6,6,6,6,6,6,6,6,6,1,1,1,1,1,1,1,1,6,6,6,4,1,1,1,1,1,1,1,1,1,1,3,6,6,6,6,1,1,1,1,1,1,1,1,1,1,1,1,1,1,1,1,1,1,3,6,4,1,1,13,9,9,9,9,9,9,9,9,9,9,9,9,9,6,6,1,1,1,1,1,1,1,1,1,1,1,1,1,1,1,1,1,1,1,1,1,6,9,
6,6,6,4,4,4,4,4,4,4,4,4,29,4,4,4,29,4,4,4,29,4,4,4,4,4,4,4,4,4,6,6,6,6,4,4,4,4,4,4,4,4,4,4,4,4,4,4,4,4,4,4,4,4,4,4,4,4,4,4,4,4,4,4,4,4,3,4,4,4,4,4,4,4,29,4,4,4,4,4,4,6,6,29,4,6,6,4,4,3,6,6,4,29,6,6,6,6,4,4,4,4,4,4,4,4,4,6,6,6,6,4,4,4,4,4,4,4,9,1,1,1,1,4,4,4,4,4,4,4,4,4,4,4,4,4,6,6,6,6,6,6,6,6,6,6,6,6,6,6,6,6,6,6,6,6,6,6,6,6,6,6,6,6,6,6,6,4,4,4,4,4,4,4,4,6,6,6,6,4,4,4,4,29,4,4,4,4,4,6,6,6,6,6,4,29,4,3,4,4,4,4,4,4,3,4,4,4,3,4,29,4,6,6,6,1,1,13,9,9,9,9,9,9,9,9,9,9,9,9,9,6,6,4,4,4,4,4,4,4,4,4,4,4,4,4,4,4,4,4,4,4,4,4,6,9,
6,6,6,6,6,6,6,6,6,6,6,6,29,6,6,6,29,6,6,6,29,6,6,6,6,6,6,6,6,6,6,6,6,6,6,6,6,6,6,6,6,6,6,6,6,6,6,6,6,6,6,6,6,6,6,6,6,6,6,6,6,6,6,6,6,6,6,6,6,6,6,6,6,6,29,6,6,6,6,6,6,6,6,29,6,6,6,6,6,6,6,6,6,29,6,6,6,6,6,6,6,6,6,6,6,6,6,6,6,6,6,6,6,6,6,6,6,6,9,1,1,1,1,6,6,6,6,6,6,6,6,6,6,6,6,6,6,6,6,6,6,6,6,6,6,6,6,6,6,6,6,6,6,6,6,6,6,6,6,6,6,6,6,6,6,6,6,6,6,6,6,6,6,6,6,6,6,6,6,6,6,6,6,29,6,6,6,6,6,6,6,6,6,6,6,29,6,6,6,6,6,6,6,6,6,6,6,6,6,6,29,6,6,6,6,1,1,13,9,9,9,9,9,9,9,9,9,9,9,9,9,6,6,6,6,6,6,6,6,6,6,6,6,6,6,6,6,6,6,6,6,6,6,6,6,9,
6,6,6,6,6,6,6,6,6,6,6,6,29,6,6,6,29,6,6,6,29,6,6,6,6,6,6,6,6,6,8,8,6,6,6,6,6,6,6,6,6,6,6,6,6,6,6,6,6,6,6,6,6,6,6,6,6,6,6,6,6,6,6,6,6,6,6,6,6,6,6,6,6,6,29,6,6,6,6,6,6,6,6,29,6,6,6,6,6,6,6,6,6,29,6,6,6,6,6,6,6,6,6,6,6,6,6,6,6,6,6,6,6,6,6,6,6,6,9,1,1,1,1,6,6,6,6,6,8,8,8,8,8,8,8,8,8,8,8,8,8,8,8,8,6,6,6,6,6,6,6,6,6,6,6,6,6,6,6,6,6,6,6,6,6,6,6,6,6,6,6,6,6,6,6,6,6,6,6,6,6,6,6,29,6,6,6,6,6,6,6,6,6,6,6,29,6,6,6,6,6,6,6,6,6,6,6,6,6,6,29,6,6,6,7,1,1,13,9,9,9,9,9,9,9,9,9,9,9,9,9,9,9,9,9,9,9,9,9,9,6,6,6,6,6,6,6,6,6,6,6,6,6,6,6,9,
6,6,6,6,6,6,6,6,6,6,6,6,29,6,6,6,29,6,6,6,29,6,6,6,6,6,6,6,6,6,8,8,6,6,6,6,6,6,6,6,6,6,6,6,6,6,6,6,6,6,6,6,6,6,6,6,6,6,6,6,6,6,6,6,6,6,6,6,6,6,5,7,5,6,29,6,7,5,6,6,6,6,6,29,6,6,7,5,6,6,6,6,6,29,5,6,6,6,6,6,6,6,6,6,6,6,6,6,6,6,6,6,6,6,6,6,6,6,9,1,1,1,1,6,6,6,6,6,8,8,8,8,8,8,8,8,8,8,8,8,8,8,8,8,6,6,6,6,6,6,6,6,6,6,6,6,6,6,6,6,6,6,6,6,6,6,6,6,6,6,6,6,6,6,6,6,6,6,6,6,6,6,6,29,6,6,6,6,6,6,6,6,6,6,6,29,6,6,6,6,6,6,6,6,6,6,6,6,6,6,29,6,1,1,1,1,1,13,9,9,9,9,9,9,9,9,9,9,9,9,9,9,9,9,9,9,9,9,9,9,6,6,6,6,6,6,6,6,6,6,6,6,6,6,6,9,
6,6,28,28,28,28,28,28,28,28,28,28,28,28,28,28,28,28,28,28,28,28,28,28,28,28,28,28,28,28,8,8,6,6,1,1,1,1,1,1,1,1,1,1,1,1,6,6,6,7,1,1,1,1,1,5,6,7,1,1,1,1,1,1,1,1,1,1,1,1,1,1,1,1,1,1,1,1,1,1,1,1,1,1,1,1,1,1,1,1,1,1,1,1,1,6,6,7,1,1,1,5,6,6,7,1,6,6,6,6,6,6,6,6,6,6,6,6,9,1,1,1,1,5,6,7,1,1,1,1,1,1,1,1,1,1,1,1,1,1,1,1,1,1,19,19,19,19,19,19,19,19,19,19,19,19,19,19,19,19,19,19,19,19,19,19,19,19,19,19,19,19,19,19,19,19,19,19,19,19,19,19,19,19,19,19,19,19,19,19,19,19,1,1,1,1,1,1,1,1,1,1,1,1,6,6,6,6,6,6,29,6,1,1,1,1,1,13,9,9,9,9,9,9,9,9,9,9,9,9,9,9,9,9,9,9,9,9,9,9,6,28,28,28,28,28,28,28,28,28,28,28,28,6,6,9,
6,6,28,27,28,28,27,28,28,27,28,28,27,28,28,28,28,28,28,27,28,28,27,28,28,27,28,28,27,28,8,8,6,6,1,1,1,1,1,1,1,1,1,1,1,1,6,6,6,1,31,1,1,1,31,1,6,1,1,1,1,1,1,1,1,1,1,1,1,1,1,1,1,1,1,1,1,1,1,1,1,1,1,1,1,1,1,1,1,1,1,1,1,1,1,6,6,1,1,1,1,1,5,7,1,1,5,6,7,5,6,5,5,6,7,5,6,7,9,1,1,1,1,1,1,1,1,1,1,1,1,1,1,1,1,1,1,1,1,8,1,1,1,1,19,19,19,19,19,19,19,19,19,19,19,19,19,19,19,19,19,19,19,19,19,19,19,19,19,19,19,19,19,19,19,19,19,19,19,19,19,19,19,19,19,19,19,19,19,19,19,19,1,1,1,1,1,3,6,6,4,1,1,1,6,6,6,6,6,6,29,6,1,1,1,1,1,13,9,9,9,9,9,9,9,9,9,9,9,9,9,9,9,9,9,9,9,9,9,9,6,28,27,28,27,28,28,27,28,28,27,28,28,6,6,9,
6,6,28,28,28,28,28,28,28,28,28,28,28,28,28,28,28,28,28,28,28,28,28,28,28,28,28,28,28,28,8,8,6,6,1,8,8,8,1,1,1,1,8,8,8,1,6,6,6,1,1,1,2,1,1,1,6,1,1,1,1,1,1,1,1,1,30,1,1,30,1,1,30,1,1,30,1,1,1,1,1,1,30,1,1,30,1,1,30,1,1,30,1,1,1,6,6,1,1,1,1,1,1,1,1,1,1,1,1,1,1,1,1,1,1,1,1,1,10,1,1,1,1,1,1,31,1,1,1,1,1,1,1,1,1,1,1,1,1,1,1,1,1,1,19,19,19,19,19,19,19,19,19,19,19,19,19,19,19,19,19,19,19,19,19,19,19,19,19,19,19,19,19,19,19,19,19,19,19,19,19,19,19,19,19,19,19,19,19,19,19,19,1,1,31,1,3,6,6,6,6,4,1,1,5,6,6,6,6,6,29,7,1,1,1,1,1,14,11,11,11,11,11,11,11,11,11,11,11,11,11,11,11,9,9,9,9,9,9,9,6,28,28,28,28,28,28,28,28,28,28,28,28,6,6,9,
6,6,28,27,28,28,27,28,28,27,28,28,27,28,28,28,28,28,28,27,28,28,27,28,28,27,28,28,27,28,8,8,6,6,1,1,1,1,1,31,1,1,1,1,1,1,6,6,6,1,1,2,2,2,1,1,6,1,1,31,1,1,1,31,1,1,1,1,31,1,1,1,1,1,1,1,1,1,1,31,1,1,1,1,1,1,1,31,1,1,1,1,1,1,1,6,6,1,1,31,1,1,1,31,1,1,1,1,1,1,1,1,1,1,1,1,1,1,10,1,1,1,1,1,1,1,1,1,1,1,1,1,1,1,1,1,31,1,1,8,1,8,1,31,19,19,19,19,19,19,19,19,19,19,19,19,19,19,19,19,19,19,19,19,19,19,19,19,19,19,19,19,19,19,19,19,19,19,19,19,19,19,19,19,19,19,19,19,19,19,19,19,1,1,1,1,6,6,6,6,6,6,1,1,1,1,1,1,1,1,1,1,1,1,1,1,1,1,1,1,1,1,1,1,1,1,1,1,1,1,1,1,1,13,9,9,9,9,9,9,6,28,27,28,27,28,28,27,28,28,27,28,28,6,6,9,
6,6,28,28,28,28,28,28,28,28,28,28,28,28,28,28,28,28,28,28,28,28,28,28,28,28,28,28,28,28,8,8,6,6,1,8,8,8,1,1,1,1,8,8,8,1,6,6,6,1,1,1,2,1,1,1,6,1,1,1,1,1,1,1,1,1,30,1,1,30,1,1,30,1,1,30,1,1,30,1,1,1,30,1,1,30,1,1,30,1,1,30,1,1,1,6,6,1,1,1,1,1,1,1,1,15,12,12,12,12,12,12,12,12,12,12,12,12,9,12,12,12,12,12,12,12,12,12,12,12,12,12,12,12,17,1,1,1,1,1,1,1,1,1,19,19,19,19,19,19,19,19,19,19,19,19,19,19,19,19,19,19,19,19,19,19,19,19,19,19,19,19,19,19,19,19,19,19,19,19,19,19,19,19,19,19,19,19,19,19,19,19,1,1,1,1,5,6,6,6,6,7,1,1,1,1,1,1,1,1,1,1,1,1,1,31,1,1,1,1,1,1,1,31,1,1,1,1,1,1,1,1,1,13,9,9,9,9,9,9,6,28,28,28,28,28,28,28,28,28,28,28,28,6,6,9,
6,6,28,27,28,28,27,28,28,27,28,28,27,28,28,28,28,28,28,27,28,28,27,28,28,27,28,28,27,28,8,8,6,6,1,1,1,1,1,1,1,1,1,1,1,1,6,6,6,1,31,1,1,1,31,1,6,1,1,1,1,1,1,1,1,1,1,1,1,1,1,1,1,1,1,1,1,1,1,1,1,1,1,1,1,1,1,1,1,1,1,1,1,1,1,6,6,1,1,1,1,1,1,1,1,13,9,9,9,9,9,9,9,9,9,9,9,9,9,9,9,9,9,9,9,9,9,9,9,9,9,9,9,9,18,1,1,1,1,8,1,1,1,1,19,19,19,19,19,19,19,19,19,19,19,19,19,19,19,19,19,19,19,19,19,19,19,19,19,19,19,19,19,19,19,19,19,19,19,19,19,19,19,19,19,19,19,19,19,19,19,19,1,1,1,1,1,1,1,1,1,1,1,1,1,1,1,1,31,1,1,1,1,1,1,1,1,1,1,1,1,1,1,1,1,1,1,1,1,31,1,1,1,13,9,9,9,9,9,9,6,28,27,28,27,28,28,27,28,28,27,28,28,6,6,9,
6,6,28,28,28,28,28,28,28,28,28,28,28,28,4,4,4,4,28,28,28,28,28,28,28,28,28,28,28,28,8,8,6,6,1,1,1,1,1,1,1,1,1,1,1,1,6,6,6,4,1,1,1,1,1,3,6,4,1,1,1,1,1,1,1,1,1,3,4,1,1,1,1,1,1,1,1,1,1,1,1,1,1,1,1,1,1,1,1,1,1,1,1,1,3,6,6,4,1,1,1,1,3,4,1,13,9,9,9,9,9,9,9,9,9,9,9,9,9,9,9,9,9,9,9,9,9,9,9,9,9,9,9,9,18,1,1,1,1,1,1,1,8,1,19,19,19,19,19,19,19,19,19,19,19,19,19,19,19,19,19,19,19,19,19,19,19,19,19,19,19,19,19,19,19,19,19,19,19,19,19,19,19,19,19,19,19,19,19,19,19,19,1,1,31,1,1,1,1,1,1,1,1,1,1,1,1,1,1,1,1,1,1,1,1,1,1,1,1,1,1,1,1,1,1,1,1,1,1,1,1,1,1,13,9,9,9,9,9,9,6,28,28,28,28,28,28,28,28,28,28,28,28,6,6,9,
6,6,28,28,28,28,28,28,28,28,28,28,28,28,6,6,6,6,28,28,28,28,28,28,28,28,28,28,28,28,8,8,6,6,4,4,4,4,4,29,4,4,4,4,4,4,6,6,6,6,4,4,4,4,29,6,6,6,4,4,4,29,4,4,4,4,4,6,6,4,4,3,4,4,4,4,4,3,4,4,4,4,4,4,29,4,4,3,4,4,4,4,4,4,6,6,6,6,1,1,1,3,6,6,4,13,9,9,9,9,9,9,9,9,9,9,9,9,9,9,9,9,9,9,9,9,9,9,9,9,9,9,9,9,18,1,1,8,8,8,8,8,8,8,4,4,4,4,4,4,4,4,4,4,4,4,4,4,4,4,4,4,19,19,19,19,19,19,19,19,19,19,19,19,19,4,4,19,19,19,19,19,19,19,19,19,19,19,19,19,4,4,4,4,4,4,4,4,4,4,4,4,4,4,4,4,4,4,4,4,4,4,4,4,4,1,1,4,4,4,4,4,4,4,4,4,1,1,1,1,1,1,1,13,9,9,9,9,9,9,6,4,4,4,4,29,4,4,4,4,4,4,4,6,6,9,
6,6,28,28,28,28,28,28,28,28,28,28,28,28,6,6,6,6,28,28,28,28,28,28,28,28,28,28,28,28,8,8,6,6,6,6,6,6,6,29,6,6,6,6,6,6,6,6,6,6,6,6,6,6,29,6,6,6,6,6,6,29,6,6,6,6,6,6,6,6,6,6,6,6,6,6,6,6,6,6,6,6,6,6,29,6,6,6,6,6,6,6,6,6,6,6,6,6,1,1,4,6,6,6,6,13,9,9,9,9,9,9,9,9,9,9,9,9,9,9,9,9,9,9,9,9,9,9,9,9,9,9,9,9,18,1,1,8,8,8,8,8,8,8,6,6,6,6,6,6,6,6,6,6,6,6,6,6,6,6,6,6,19,19,19,19,19,19,19,19,19,19,19,19,19,6,6,19,19,19,19,19,19,19,19,19,19,19,19,19,6,6,6,6,6,6,6,6,6,6,6,6,6,6,6,6,6,6,6,6,6,6,6,6,6,1,1,6,6,6,6,6,6,6,6,6,1,1,1,1,1,1,1,13,9,9,9,9,9,9,6,6,6,6,6,29,6,6,6,6,6,6,6,6,6,9,
6,6,28,28,28,28,28,28,28,28,28,28,28,28,5,6,6,7,28,28,28,28,28,28,28,28,28,28,28,28,8,8,6,6,6,6,6,6,6,29,6,6,6,6,6,6,6,6,6,6,6,6,6,6,29,6,6,6,6,6,6,29,6,6,6,6,6,6,6,6,6,6,6,6,6,6,6,6,6,6,6,6,6,6,29,6,6,6,6,6,6,6,6,6,6,6,6,6,1,1,6,6,6,6,6,13,9,9,9,9,9,9,9,6,6,6,6,6,6,6,6,6,6,6,6,6,6,9,9,9,9,9,9,9,18,1,1,8,8,8,8,8,8,8,6,6,6,6,6,6,6,6,6,6,6,6,6,6,6,6,6,6,19,19,19,19,19,19,19,19,19,19,19,19,19,6,6,19,19,19,19,19,19,19,19,19,19,19,19,19,6,6,6,6,6,6,6,6,6,6,6,6,6,6,6,6,6,6,8,8,8,8,8,8,8,1,1,8,8,8,8,8,8,8,6,6,1,1,1,1,1,1,1,13,9,9,9,9,9,9,9,9,9,9,9,9,9,9,9,9,9,9,9,9,9,9,
6,6,28,28,28,28,28,28,28,28,28,28,28,28,28,28,28,28,28,28,28,28,28,28,28,28,28,28,28,28,8,8,6,6,6,6,6,6,6,29,6,7,5,6,6,6,6,6,6,6,6,6,6,6,29,6,6,6,6,6,6,29,6,6,6,6,6,6,6,6,6,6,6,6,6,6,6,6,6,6,6,6,6,6,29,6,6,6,6,6,6,6,6,6,6,6,6,6,1,1,6,6,6,6,6,13,9,9,9,9,9,9,9,6,6,6,6,6,6,6,6,6,6,6,6,6,6,9,9,9,9,9,9,9,18,1,1,8,8,8,8,8,8,8,6,6,6,6,6,6,6,6,6,6,6,6,6,6,6,6,6,6,19,19,19,19,19,19,19,19,19,19,19,0,19,6,6,19,19,19,19,19,19,19,19,19,19,19,19,19,6,6,6,6,6,6,6,6,6,6,6,6,6,6,7,5,6,6,8,8,8,1,1,8,8,1,1,8,8,8,8,8,8,8,6,6,1,1,1,1,1,1,1,13,9,9,9,9,9,9,9,9,9,9,9,9,9,9,9,9,9,9,9,9,9,9,
6,6,28,28,28,28,28,28,28,28,28,28,28,28,28,28,28,28,28,28,28,28,28,28,28,28,28,28,28,28,8,8,6,6,7,5,6,6,6,29,6,1,1,5,6,6,6,6,6,6,28,28,28,28,28,28,28,28,28,28,28,28,28,6,6,7,1,1,1,1,1,1,1,1,1,1,1,1,5,6,6,6,6,6,29,6,6,6,6,6,6,6,6,6,6,6,6,6,1,1,6,6,6,6,6,13,9,9,9,9,9,9,9,6,7,1,1,1,1,1,1,1,1,1,1,5,6,9,9,9,9,9,9,9,18,1,1,1,8,1,1,1,1,8,6,7,1,1,1,1,1,1,1,1,1,1,1,1,5,6,6,6,19,19,19,19,19,19,19,19,19,19,19,19,19,19,19,19,19,19,19,19,19,19,19,19,19,19,19,19,6,6,6,6,1,1,1,1,1,1,1,1,1,1,1,1,5,6,8,1,1,1,1,1,1,1,1,1,1,1,1,1,1,8,6,6,1,1,1,1,1,1,1,13,9,9,9,9,9,9,9,9,9,9,9,9,9,9,9,9,9,9,9,9,9,9,
6,6,28,27,28,28,27,28,28,27,28,28,27,28,28,28,28,28,28,27,28,28,27,28,28,27,28,28,27,28,8,8,5,7,1,1,5,6,6,29,6,1,1,1,5,6,6,6,6,6,28,28,28,28,28,28,28,28,28,28,28,28,28,6,6,1,1,1,1,1,1,1,1,1,1,1,1,1,1,6,6,6,6,6,29,6,6,6,6,6,6,6,6,6,6,7,6,7,1,1,5,7,0,5,7,13,9,9,9,9,9,9,9,6,1,1,2,1,2,1,1,1,1,2,1,1,6,9,9,9,9,9,9,9,18,1,1,1,1,1,1,1,1,8,7,1,1,1,15,12,12,12,12,12,17,1,8,1,1,6,6,6,19,19,19,19,19,19,19,19,19,19,19,19,19,19,19,19,19,19,19,19,19,19,19,19,19,19,19,19,6,6,6,7,1,8,1,8,1,1,1,8,1,8,1,1,1,6,8,1,8,1,8,1,1,1,1,1,1,8,1,1,1,8,6,6,1,1,1,1,1,1,1,13,9,9,9,9,9,9,9,9,9,9,9,9,9,9,9,9,9,9,9,9,9,9,
6,6,28,28,28,28,28,28,28,28,28,28,28,28,28,28,28,28,28,28,28,28,28,28,28,28,28,28,28,28,28,28,1,1,1,1,1,5,6,29,7,1,1,1,1,5,6,6,6,7,28,27,28,27,28,27,28,27,28,27,28,28,28,6,6,1,8,1,8,1,8,1,1,1,31,1,1,1,1,5,6,6,6,7,1,1,1,31,1,1,1,1,1,1,1,1,1,1,1,1,1,1,1,1,1,13,9,9,9,9,9,9,9,6,1,1,1,1,1,1,2,1,1,1,1,1,6,9,9,9,9,9,9,9,18,1,1,1,1,1,8,1,1,1,1,1,8,1,13,9,9,9,9,9,18,1,1,1,1,6,6,6,19,19,19,19,19,19,19,19,19,19,19,19,19,19,19,19,19,19,19,19,19,19,19,19,19,19,19,19,6,6,6,1,1,1,1,8,1,1,1,8,1,1,1,31,1,6,8,1,1,31,1,1,8,1,1,8,1,1,31,8,1,8,6,6,1,1,31,1,1,1,1,14,11,11,11,11,11,11,11,11,11,11,11,10,11,11,9,9,9,9,9,9,9,9,
6,6,28,27,28,28,27,28,28,27,28,28,27,28,28,28,28,28,28,27,28,28,27,28,28,27,28,28,27,28,28,28,1,1,31,1,1,1,1,1,1,1,1,31,1,1,1,1,1,1,28,28,28,28,28,28,28,28,28,28,28,28,28,6,6,1,1,31,1,1,1,1,1,1,1,1,1,1,1,1,1,1,1,1,1,1,1,1,1,1,1,1,1,1,1,1,1,31,1,1,1,1,1,1,1,13,9,9,9,9,9,9,9,6,1,1,2,1,2,1,1,1,2,1,1,1,6,9,9,9,9,9,9,9,18,1,1,31,1,1,1,1,1,31,1,1,1,1,13,9,9,9,9,9,18,1,1,1,1,6,6,6,19,19,19,19,19,19,19,19,19,19,19,19,19,19,19,19,19,19,19,19,19,19,19,19,19,19,19,19,6,6,6,1,31,1,1,8,1,31,1,8,1,1,1,1,1,6,8,1,8,1,8,1,1,1,1,1,1,8,1,1,1,8,6,6,1,1,1,1,1,1,1,1,1,1,1,1,1,1,1,1,1,1,1,1,1,1,13,9,9,9,9,9,9,9,
6,6,28,28,28,28,28,28,28,28,28,28,28,28,28,28,28,28,28,28,28,28,28,28,28,28,28,28,28,28,28,28,1,1,1,1,1,1,1,1,1,1,1,1,1,1,3,4,4,4,28,27,28,27,28,27,28,27,28,27,28,28,28,6,6,1,8,1,8,1,8,1,1,15,12,12,12,12,12,9,9,9,9,9,12,12,12,12,12,12,12,12,12,12,12,12,12,12,12,12,12,12,12,12,12,9,9,9,9,9,9,9,9,6,1,1,1,1,1,1,2,1,1,1,1,1,6,9,9,9,9,9,9,9,18,1,1,1,1,1,8,1,1,1,1,1,8,1,14,11,11,11,11,11,16,1,8,1,1,6,6,6,19,19,19,19,19,19,19,19,19,19,19,19,19,19,19,19,19,19,19,19,19,19,19,19,19,19,19,19,6,6,6,1,1,8,1,8,1,1,1,8,1,8,1,1,1,6,8,1,1,1,1,1,1,1,1,1,1,1,1,8,1,8,6,6,1,1,1,1,1,1,1,1,1,1,1,1,1,1,1,1,1,1,1,1,1,1,13,9,9,9,9,9,9,9,
6,6,28,27,28,28,27,28,28,27,28,28,27,28,28,28,28,28,28,27,28,28,27,28,28,27,28,28,27,28,8,8,3,4,1,1,1,1,31,1,1,1,1,1,1,3,6,6,6,6,28,28,28,28,28,28,28,28,28,28,28,28,28,6,6,1,1,1,1,1,1,1,1,13,9,9,9,9,9,9,9,9,9,9,9,9,9,9,9,9,9,9,9,9,9,9,9,9,9,9,9,9,9,9,9,9,9,9,9,9,9,9,9,6,1,1,2,1,2,1,1,1,1,2,1,1,6,9,9,9,9,9,9,9,18,1,1,1,1,1,1,1,1,8,4,1,1,1,1,1,1,1,1,1,1,1,1,1,1,6,6,6,19,19,19,19,19,19,19,19,19,19,19,19,19,19,19,19,19,19,19,19,19,19,19,19,19,19,19,19,6,6,6,4,1,1,1,1,1,1,1,1,1,31,1,1,1,6,8,1,8,1,8,1,1,31,1,1,1,8,1,1,1,8,6,6,1,1,1,1,1,1,31,1,1,1,1,31,1,1,1,1,1,1,1,1,1,1,13,9,9,9,9,9,9,9,
6,6,28,28,28,28,28,28,28,28,28,28,28,28,28,28,28,28,28,28,28,28,28,28,28,28,28,28,28,28,8,8,6,6,4,1,1,1,1,1,1,1,1,1,3,6,6,6,6,6,28,28,28,28,28,28,28,28,28,28,28,28,28,6,6,4,1,1,1,1,1,1,1,13,9,9,9,9,9,9,9,9,9,9,9,9,9,9,9,9,9,9,9,9,9,9,9,9,9,9,9,9,9,9,9,9,9,9,9,9,9,9,9,6,1,1,1,1,1,1,1,1,1,1,1,1,6,9,9,9,9,9,9,9,18,1,1,1,8,1,1,1,1,8,6,4,1,1,1,1,1,1,1,1,1,1,1,1,3,6,6,6,19,19,19,19,19,19,19,19,19,19,19,19,19,19,19,19,19,19,19,19,19,19,19,19,19,19,19,19,6,6,6,6,4,1,1,1,1,1,1,1,1,1,1,1,3,6,8,1,1,1,1,1,1,1,1,1,1,1,1,1,1,8,6,6,1,1,1,1,1,1,1,1,1,1,1,1,1,1,1,1,1,1,1,1,1,1,13,9,9,9,9,9,9,9,
6,6,28,28,28,28,28,28,28,28,28,28,28,28,4,4,4,4,28,28,28,28,28,28,28,28,28,28,28,28,8,8,6,6,6,4,4,4,4,4,4,4,4,4,6,6,6,6,6,6,3,3,3,3,3,3,3,3,3,3,3,3,6,6,6,6,4,4,4,4,4,1,1,13,9,9,9,9,9,9,9,9,9,9,9,9,9,9,9,9,9,9,9,9,9,9,9,9,9,9,9,9,9,9,9,9,9,9,9,9,9,9,9,6,4,4,4,4,4,4,1,4,4,4,4,4,6,9,9,9,9,9,9,9,18,1,1,8,8,8,8,8,8,8,6,6,4,4,4,4,4,1,1,4,4,4,4,4,6,6,6,6,4,4,4,4,4,19,19,4,4,4,4,4,4,4,4,4,4,4,4,4,4,4,4,4,4,4,1,1,6,6,6,6,6,4,4,4,4,29,4,4,4,4,4,4,6,6,8,1,8,1,8,1,8,1,1,8,1,8,1,8,1,8,6,6,4,4,4,4,4,4,4,4,4,4,4,4,4,4,4,4,4,4,4,1,1,1,13,9,9,9,9,9,9,9,
6,6,28,28,28,28,28,28,28,28,28,28,28,28,6,6,6,6,28,28,28,28,28,28,28,28,28,28,28,28,8,8,6,6,6,6,6,6,6,6,6,6,6,6,6,6,6,6,6,6,6,6,6,6,6,6,6,6,6,6,6,6,6,6,6,6,6,6,6,6,6,1,1,13,9,9,9,9,9,9,9,9,9,9,9,9,9,9,9,9,9,9,9,9,9,9,9,9,9,9,9,9,9,9,9,9,9,9,9,9,9,9,9,6,6,6,6,6,6,6,1,6,6,6,6,6,6,9,9,9,9,9,9,9,18,1,1,8,8,8,8,8,8,8,6,6,6,6,6,6,6,1,1,6,6,6,6,6,6,6,6,6,6,6,6,6,6,19,19,6,6,6,6,6,6,6,6,6,6,6,6,6,6,6,6,6,6,6,1,1,6,6,6,6,6,6,6,6,6,29,6,6,6,6,6,6,6,6,8,1,8,1,8,1,8,1,1,8,1,8,1,8,1,8,6,6,6,6,6,6,6,6,6,6,6,6,6,6,6,6,6,6,6,6,6,1,1,1,13,9,9,9,9,9,9,9,
6,6,28,28,28,28,28,28,28,28,28,28,28,28,6,6,6,7,28,28,28,28,28,28,28,28,28,28,28,28,8,8,6,6,6,6,6,6,6,6,6,6,6,6,6,6,6,6,6,6,6,6,6,6,6,6,6,6,6,6,6,6,6,6,1,1,1,1,1,1,1,1,1,13,9,9,9,9,9,9,9,6,6,6,6,6,6,6,6,6,6,6,6,6,6,9,9,9,9,9,9,9,9,9,9,9,9,9,9,9,9,9,9,9,9,9,9,9,9,9,10,9,9,9,9,9,9,9,9,9,9,9,9,9,18,1,1,8,8,8,8,8,8,8,8,8,8,8,8,8,8,1,1,8,8,8,8,8,8,8,6,6,6,6,6,6,6,1,1,6,6,6,6,6,6,6,8,8,8,8,8,8,8,8,8,8,8,8,1,1,8,8,6,6,6,6,6,6,6,29,6,6,6,6,6,6,6,6,8,1,8,31,8,1,8,1,1,8,1,8,1,8,1,8,8,8,8,8,8,8,8,8,8,8,8,8,8,8,8,8,6,6,6,6,6,1,1,1,13,9,9,9,9,9,9,9,
6,6,28,28,28,28,28,28,28,28,28,28,28,28,5,6,28,28,28,28,28,28,28,28,28,28,28,28,28,28,8,8,6,6,6,6,6,6,6,6,6,6,6,6,6,6,6,6,6,6,6,6,6,6,6,6,6,6,6,6,6,6,6,6,1,1,1,1,1,1,1,1,1,13,9,9,9,9,9,9,9,6,6,6,6,6,6,6,6,6,6,6,6,6,6,9,9,9,9,9,9,9,9,9,9,9,9,9,9,9,9,9,9,9,9,9,9,9,9,9,9,9,9,9,9,9,9,9,9,9,9,9,9,9,18,1,1,8,8,8,8,8,8,8,8,8,8,8,8,8,8,1,1,8,8,8,8,8,8,8,6,6,6,7,5,6,6,1,1,6,6,6,6,6,6,6,8,8,8,8,8,8,8,8,8,8,8,8,1,1,8,8,6,6,7,5,7,5,6,29,6,6,6,7,5,6,6,6,8,1,8,1,8,1,8,1,1,8,1,8,1,8,1,8,8,8,8,8,8,8,8,8,8,8,8,8,8,8,8,8,6,6,6,6,7,1,1,1,13,9,9,9,9,9,9,9,
6,6,28,28,28,28,28,28,28,28,28,28,28,28,28,28,28,28,28,28,28,28,28,28,28,28,28,28,28,28,8,8,6,7,1,1,31,1,1,1,1,1,1,1,31,1,5,6,6,7,1,1,1,1,1,1,1,1,1,1,1,1,5,6,1,1,1,31,1,1,1,1,1,13,9,9,9,9,9,9,9,6,7,1,1,1,1,1,1,1,1,1,1,5,6,9,9,9,9,9,9,9,9,9,9,9,9,9,9,9,9,9,9,9,9,9,9,9,9,9,9,9,9,9,9,9,9,9,9,9,9,9,9,9,18,1,1,1,1,1,31,8,8,8,8,8,1,1,1,1,1,1,1,8,8,8,8,8,8,8,6,6,7,1,1,1,1,1,1,1,1,1,1,5,6,6,8,1,1,1,1,1,1,1,1,1,8,8,1,1,8,8,6,6,1,1,1,1,6,29,6,6,6,1,1,6,6,6,8,1,1,1,1,1,1,1,31,1,1,1,1,1,1,8,8,8,1,1,1,1,1,1,1,1,1,1,1,1,8,8,6,6,6,6,1,1,1,1,13,9,9,9,9,9,9,9,
6,6,28,27,28,27,28,27,28,27,28,28,28,28,28,28,28,28,28,27,28,28,27,28,28,27,28,28,27,28,8,8,7,1,1,1,1,19,19,19,19,19,19,1,1,1,1,6,6,1,1,1,1,15,12,12,12,12,12,17,1,1,1,6,1,1,1,1,1,1,1,1,1,13,9,9,9,9,9,9,9,6,1,1,1,1,1,1,1,1,1,1,1,1,6,9,9,9,9,9,9,9,9,9,9,9,9,9,9,9,9,9,9,9,9,9,9,9,9,9,9,9,9,9,9,9,9,9,9,9,9,9,9,9,18,1,1,1,1,1,1,8,8,8,8,8,1,1,1,1,1,1,1,8,8,8,8,8,8,8,5,7,1,1,1,1,1,1,1,1,1,1,1,1,5,7,8,1,1,1,1,1,8,1,1,1,8,8,1,1,8,8,6,7,1,1,1,1,6,29,6,6,6,1,1,6,6,6,8,1,1,1,1,1,8,1,1,1,1,8,1,31,1,8,8,1,1,1,1,1,1,1,1,1,31,1,1,1,1,8,6,6,6,7,1,1,1,1,13,9,9,9,9,9,9,9,
6,6,28,28,28,28,28,28,28,28,28,28,28,28,28,28,28,28,28,28,28,28,28,28,28,28,28,28,28,28,28,28,1,1,1,8,1,19,19,19,19,19,19,1,8,1,1,6,6,1,1,8,1,9,9,9,9,9,9,9,1,8,1,6,1,1,1,1,1,1,1,1,1,13,9,9,9,9,9,9,9,6,1,1,1,1,1,1,1,1,1,1,1,1,6,9,9,9,9,9,9,9,9,9,11,11,11,11,11,11,11,11,11,11,11,11,11,11,11,11,10,11,11,11,11,11,11,11,11,11,11,11,11,11,16,1,1,1,1,1,1,8,8,8,8,8,1,1,1,31,1,1,1,1,1,1,1,1,1,1,1,1,1,1,1,8,1,1,1,1,8,1,1,1,1,1,1,1,1,1,1,1,1,1,8,1,8,8,1,1,8,8,6,1,1,1,1,1,5,29,6,6,7,1,1,5,6,7,1,1,8,1,8,1,1,1,1,8,1,1,1,8,1,1,1,31,1,1,8,1,1,1,8,1,1,1,1,1,1,8,6,6,7,1,1,1,1,31,13,9,9,9,9,9,9,9,
6,6,28,27,28,27,28,27,28,27,28,28,28,28,28,28,28,28,28,27,28,28,27,28,28,27,28,28,27,28,28,28,1,1,1,1,1,19,19,19,19,19,19,1,1,1,1,6,6,1,1,1,1,9,9,9,9,9,9,9,1,1,1,6,1,1,1,1,31,1,1,1,1,13,9,9,9,9,9,9,9,6,1,1,1,1,1,1,1,1,1,1,1,1,6,9,9,9,9,9,9,9,9,18,1,1,1,1,1,1,1,31,1,1,1,1,1,1,1,1,1,1,1,1,1,1,1,31,1,1,1,1,1,1,1,1,31,1,1,1,1,8,8,8,8,8,1,2,1,1,1,1,1,1,1,1,1,1,1,1,1,1,1,1,1,1,1,1,31,1,1,1,1,1,1,1,1,8,1,1,31,1,8,1,1,1,8,8,1,1,8,8,6,1,1,1,1,1,1,1,1,1,1,1,1,1,1,1,1,1,1,1,1,1,8,1,1,1,1,1,1,1,1,1,1,1,1,1,1,1,1,1,1,1,1,1,1,1,1,8,6,6,1,1,1,1,1,1,13,9,9,9,9,9,9,9,
6,6,28,28,28,28,28,28,28,28,28,28,28,28,28,28,28,28,28,28,28,28,28,28,28,28,28,28,28,28,28,28,1,1,1,8,1,19,19,19,19,19,19,1,8,1,1,6,6,1,1,8,1,14,11,11,11,11,11,16,1,8,1,6,1,1,1,1,1,1,1,1,1,13,9,9,9,9,9,9,9,6,1,1,1,1,1,1,1,1,1,1,1,1,6,9,9,9,9,9,9,9,9,18,1,1,1,1,1,1,1,1,1,1,1,1,1,1,1,31,1,1,1,1,1,1,1,1,1,1,1,1,1,1,1,1,1,1,1,1,1,8,8,8,8,8,1,1,1,1,1,1,1,1,1,1,1,1,1,1,1,1,1,1,1,8,1,1,1,1,8,1,1,1,1,1,1,1,1,1,1,1,1,1,8,1,8,8,1,1,8,8,6,1,1,1,31,1,1,1,1,1,1,31,1,3,4,4,1,1,8,1,8,1,1,1,31,8,1,1,1,8,1,1,1,1,1,1,1,1,1,1,1,1,1,1,1,1,1,8,6,6,1,1,1,1,1,1,13,9,9,9,9,9,9,9,
6,6,28,27,28,27,28,27,28,27,28,28,28,28,28,28,28,28,28,27,28,28,27,28,28,27,28,28,27,28,8,8,4,1,1,1,1,1,1,1,1,1,1,1,1,1,1,6,6,1,1,1,1,1,1,1,1,1,1,1,1,1,1,6,1,1,1,1,1,1,1,1,1,13,9,9,9,9,9,9,9,6,1,1,1,1,1,1,1,1,1,1,1,1,6,9,9,9,9,9,9,9,9,18,1,1,8,8,8,8,8,8,8,8,8,8,8,8,8,8,8,8,8,8,8,8,8,8,8,1,1,1,1,1,1,1,1,1,1,1,1,8,8,8,8,8,1,1,1,8,8,1,1,8,8,8,8,8,8,8,3,4,1,1,1,1,1,1,1,1,1,1,1,1,3,4,1,1,1,1,1,1,8,1,1,1,8,8,1,1,8,8,6,4,1,1,1,1,1,1,31,1,1,1,1,6,6,6,8,1,1,1,1,1,8,1,1,1,1,8,1,1,1,8,8,1,1,1,31,1,8,1,1,1,8,1,1,31,1,8,6,6,1,1,1,1,1,1,13,9,9,9,9,9,9,9,
6,6,4,28,28,28,28,28,28,28,28,28,28,28,28,28,28,28,28,28,28,28,28,28,28,28,28,28,28,28,8,8,6,4,1,1,31,1,1,1,31,1,1,1,1,1,3,6,6,4,1,1,1,1,1,31,31,1,1,1,1,1,3,6,1,1,1,31,1,1,1,1,1,13,9,9,9,9,9,9,9,6,4,1,1,1,1,1,1,1,1,1,1,3,6,9,9,9,9,9,9,9,9,18,1,1,8,8,8,8,8,8,8,8,8,8,8,8,8,8,8,8,8,8,8,8,8,8,8,31,1,1,1,1,1,1,1,1,1,1,31,8,8,8,8,8,1,1,1,8,8,1,1,8,8,8,8,8,8,8,6,6,4,1,1,1,1,1,1,1,1,1,1,3,6,6,8,1,1,1,1,1,1,1,1,1,8,8,1,1,8,8,6,6,1,1,1,1,1,1,1,1,1,1,1,6,6,6,8,1,1,31,1,1,1,1,1,1,1,1,1,1,1,8,8,8,1,1,1,1,1,1,1,1,1,1,1,1,8,8,6,6,4,1,1,1,1,1,13,9,9,9,9,9,9,9,
6,6,6,4,4,4,4,4,4,4,4,4,4,4,29,4,4,4,4,4,4,4,4,4,4,4,4,4,4,4,8,8,6,6,4,4,4,4,4,1,1,4,4,4,4,4,6,6,6,6,4,4,4,4,4,1,1,4,4,4,4,4,6,6,1,1,1,1,1,1,1,1,1,13,9,9,9,9,9,9,9,6,6,4,4,4,4,4,1,4,4,4,4,6,6,9,9,9,9,9,9,9,9,18,1,1,8,8,8,8,8,8,8,8,8,8,8,8,8,8,8,8,8,8,8,8,8,8,8,8,8,8,8,8,8,1,1,8,8,8,8,8,8,8,8,8,8,8,8,8,8,1,1,8,8,8,8,8,8,8,6,6,6,4,3,4,4,4,4,4,4,4,4,6,6,6,8,1,8,1,1,1,8,1,8,1,8,8,1,1,8,8,6,6,6,4,3,4,3,4,4,4,4,4,3,6,6,6,8,8,8,1,8,8,8,8,8,8,8,8,1,8,8,8,8,8,8,8,8,8,8,8,8,8,8,8,8,8,8,8,6,6,6,4,4,1,1,1,13,9,9,9,9,9,9,9,
6,6,6,6,6,6,6,6,6,6,6,6,6,6,29,6,6,6,6,6,6,6,6,6,6,6,6,6,6,6,8,8,6,6,6,6,6,6,6,1,1,6,6,6,6,6,6,6,6,6,6,6,6,6,6,1,1,6,6,6,6,6,6,6,1,1,1,1,1,1,1,1,1,13,9,9,9,9,9,9,9,6,6,6,6,6,6,6,1,6,6,6,6,6,6,9,9,9,9,9,9,9,9,18,1,1,8,8,8,8,8,8,8,8,8,8,8,8,8,8,8,8,8,8,8,8,8,8,8,8,8,8,8,8,8,1,1,8,8,8,8,8,8,8,8,8,8,8,8,8,8,1,1,8,8,8,8,8,8,8,6,6,6,6,6,6,6,6,6,6,6,6,6,6,6,6,8,1,8,1,1,1,8,1,8,1,8,8,1,1,8,8,6,6,6,6,6,6,6,6,6,6,6,6,6,6,6,6,8,8,8,1,8,8,8,8,8,8,8,8,1,8,8,8,8,8,8,8,8,8,8,8,8,8,8,8,8,8,8,8,6,6,6,6,6,1,1,1,13,9,9,9,9,9,9,9,
6,6,6,6,6,6,6,6,6,6,6,6,6,6,29,6,8,8,8,8,8,8,8,8,8,8,8,8,8,8,8,8,8,8,8,8,8,8,8,1,1,8,8,8,8,8,8,8,8,8,8,8,8,8,8,1,1,8,8,8,8,8,8,8,8,8,8,8,8,8,8,1,1,13,9,9,9,9,9,9,9,9,9,9,9,9,9,9,10,9,9,9,9,9,9,9,9,9,9,9,9,9,9,18,1,1,8,8,8,8,8,8,8,8,8,8,8,8,8,8,8,8,8,8,8,8,8,8,8,8,8,8,8,8,8,1,1,8,8,8,8,8,8,8,8,8,8,8,8,8,8,1,1,8,8,8,8,8,8,8,8,8,8,8,8,8,8,8,8,8,8,8,8,8,8,8,8,1,8,1,1,1,8,1,8,1,8,8,1,1,8,8,8,8,8,8,8,8,8,8,8,8,8,8,8,8,8,8,8,8,8,1,8,8,8,8,8,8,8,8,1,8,8,8,6,6,6,6,6,6,6,6,6,6,6,6,6,6,6,6,6,6,6,6,6,1,1,1,13,9,9,9,9,9,9,9,
6,6,6,6,6,6,6,6,6,6,6,6,6,6,29,6,8,8,8,1,8,8,8,8,8,8,8,8,8,8,8,8,8,8,8,8,8,8,8,1,1,8,8,8,8,8,8,8,8,8,8,8,8,8,8,1,1,8,8,8,8,8,8,8,8,8,1,1,1,1,1,1,1,13,9,9,9,9,9,9,9,9,9,9,9,9,9,9,9,9,9,9,9,9,9,9,9,9,9,9,9,9,9,18,1,1,8,8,8,8,8,8,8,8,8,8,8,8,8,8,8,8,8,8,8,8,8,8,8,8,8,8,8,8,8,1,1,8,8,8,8,8,8,8,8,8,8,8,8,8,8,1,1,8,8,8,8,8,8,8,8,8,8,8,8,8,8,8,8,8,8,8,8,8,8,8,8,1,8,1,1,1,8,1,8,1,8,8,1,1,8,8,8,8,8,8,8,8,8,8,8,8,8,8,8,8,8,8,8,8,8,1,8,8,8,8,8,8,8,8,1,8,8,8,6,6,6,6,6,7,5,6,6,6,6,6,6,6,6,6,6,6,6,6,7,1,1,1,13,9,9,9,9,9,9,9,
6,6,6,6,6,6,6,6,6,6,6,6,6,6,29,6,8,8,1,1,1,1,1,1,1,1,1,1,8,8,8,8,8,8,1,1,1,1,1,1,1,1,1,1,1,1,1,1,1,1,1,1,1,1,1,1,1,1,1,1,1,1,8,8,8,8,1,1,1,1,1,1,1,13,9,9,9,9,9,9,9,9,9,9,9,9,9,9,9,9,9,9,9,9,9,9,9,9,9,9,9,9,9,18,1,1,31,1,1,1,1,1,1,31,1,1,1,1,1,1,1,1,1,1,1,1,1,1,1,1,1,1,1,1,1,1,1,1,1,1,1,1,31,8,8,8,8,8,8,8,8,1,1,8,8,8,8,8,8,8,8,8,8,1,1,1,1,1,1,1,1,1,1,1,1,1,1,1,1,1,1,1,1,1,1,1,1,1,1,1,1,1,1,1,1,1,1,1,1,1,1,1,1,1,1,1,8,8,8,8,8,1,8,8,8,8,8,8,8,8,1,8,8,8,6,7,1,1,1,1,1,1,5,6,6,7,1,1,1,1,6,6,6,6,1,1,1,1,13,9,9,9,9,9,9,9,
6,6,6,6,6,6,6,6,6,6,6,6,6,6,29,6,8,1,1,1,1,1,1,1,1,1,1,1,8,8,8,8,8,8,1,8,8,8,8,8,8,8,8,8,8,8,8,8,8,8,1,31,1,1,1,1,1,1,1,1,1,31,1,8,8,8,1,1,1,8,1,1,1,13,9,9,9,9,9,9,9,9,9,9,9,9,9,9,9,9,9,9,9,9,9,9,9,9,9,9,9,9,9,18,1,1,1,1,1,1,1,1,1,1,1,1,1,1,1,8,1,8,1,1,1,8,1,8,8,1,8,1,1,1,8,1,1,8,1,8,1,1,1,8,8,8,8,8,8,8,8,1,1,8,8,8,8,8,8,8,8,8,8,1,1,1,1,1,1,1,1,1,1,1,1,1,1,1,1,1,1,1,1,1,1,1,8,1,1,1,1,8,8,8,8,8,8,8,8,8,8,8,8,8,1,1,8,8,8,8,8,1,8,8,8,8,8,8,8,8,1,8,8,8,7,1,1,1,1,1,1,1,1,5,7,1,1,1,1,1,6,6,6,6,1,1,1,1,13,9,9,9,9,9,9,9,
6,6,6,6,6,6,6,6,6,6,6,6,6,6,29,6,8,1,1,8,1,8,1,8,1,8,1,1,1,1,1,1,1,1,1,8,8,8,8,8,8,8,8,8,8,8,8,8,8,8,1,1,1,1,8,1,1,1,1,1,1,1,1,1,1,1,1,1,1,1,1,1,1,14,11,11,11,11,11,11,11,11,11,11,11,9,9,11,10,11,11,11,11,11,11,11,11,11,11,11,11,11,11,18,1,1,8,1,8,8,1,1,1,1,1,1,1,1,1,1,1,1,1,1,1,1,1,1,1,1,1,1,1,1,1,1,1,1,1,1,1,1,1,1,1,1,1,1,1,1,31,1,1,1,1,1,1,1,1,1,1,1,1,1,1,1,1,1,1,31,1,1,1,8,1,1,1,1,8,1,1,1,8,1,8,1,1,1,1,1,1,8,8,8,8,8,8,8,8,8,8,8,8,8,1,1,1,1,1,1,1,1,1,1,1,1,1,1,1,1,1,1,1,1,1,1,1,1,1,1,1,1,1,1,1,1,1,31,1,1,6,6,6,7,1,1,1,1,13,9,9,9,9,9,9,9,
6,6,28,28,28,28,28,28,28,28,28,28,28,28,28,6,8,1,1,1,31,1,1,1,31,1,1,1,1,1,31,1,1,1,1,8,8,8,8,8,8,8,8,8,8,8,8,8,8,8,1,1,1,1,1,1,1,1,8,1,1,1,1,1,1,1,31,1,1,1,1,1,1,1,1,1,1,1,1,1,1,1,1,1,1,9,9,1,1,1,1,1,1,1,1,1,1,1,1,1,1,1,1,1,1,1,1,1,1,1,1,1,1,1,1,8,31,8,1,8,1,8,31,8,1,8,1,8,8,31,8,1,8,1,8,1,1,8,31,8,1,8,1,1,1,1,1,1,1,1,1,1,1,1,1,1,1,1,1,1,1,1,1,1,1,1,1,1,1,1,1,1,1,1,1,1,1,1,1,1,31,1,1,1,1,1,8,1,31,1,1,8,8,8,8,8,8,8,8,8,8,8,8,8,1,1,1,31,1,1,1,1,1,1,31,1,1,31,1,1,1,1,1,1,1,31,1,1,1,1,1,31,1,1,1,1,1,1,1,1,5,6,7,1,1,31,1,1,13,9,9,9,9,9,9,9,
6,6,28,28,28,28,28,28,28,28,28,28,28,28,28,6,8,1,1,8,1,8,1,8,1,8,1,1,1,1,1,1,1,1,1,8,8,8,8,8,8,8,8,8,8,8,8,8,8,8,1,1,1,1,8,1,1,1,1,1,1,1,1,1,1,1,1,1,1,8,1,1,1,31,1,1,1,1,1,1,1,1,1,1,1,9,9,1,1,1,1,1,1,1,4,4,4,4,4,1,1,1,1,31,1,1,8,1,8,8,1,1,1,1,1,1,1,1,1,1,1,1,1,1,1,1,1,1,1,1,1,1,1,1,1,1,1,1,1,1,1,1,1,1,31,1,1,1,1,1,1,1,1,15,12,12,12,12,12,12,12,12,12,12,12,12,17,1,1,1,1,1,1,8,1,1,1,1,1,1,1,1,1,1,1,1,1,1,1,1,1,8,8,8,8,8,8,8,8,8,8,8,8,8,1,1,1,1,1,1,1,1,1,1,1,1,1,1,1,1,1,1,1,1,1,1,1,1,1,1,1,1,1,1,1,1,1,1,1,1,1,1,1,1,1,1,1,1,13,9,9,9,9,9,9,9,
6,6,28,28,28,28,28,28,28,28,28,28,28,28,28,6,8,1,1,1,1,1,1,1,1,1,1,1,8,8,8,8,8,8,1,8,8,8,8,8,8,8,8,8,8,8,8,8,8,8,1,1,1,1,1,1,31,1,1,1,1,1,1,8,8,8,1,1,1,1,1,1,1,1,1,1,1,1,1,1,1,1,1,1,1,9,9,1,1,1,1,1,1,1,6,6,6,6,6,1,1,1,1,1,1,1,1,1,1,1,1,1,1,1,1,1,1,1,1,8,1,8,1,1,1,8,1,8,8,1,8,1,1,1,8,1,1,8,1,8,1,1,1,8,8,8,8,8,8,8,8,1,1,13,9,9,9,9,9,9,9,9,9,9,9,9,18,1,1,1,1,1,1,1,1,1,1,1,8,1,1,1,8,1,8,1,8,1,1,1,1,8,8,8,8,8,8,8,8,8,8,8,8,8,1,8,8,8,8,8,8,1,8,8,8,8,8,8,8,8,1,8,8,8,4,1,1,1,1,1,1,1,1,3,4,1,1,1,1,1,1,1,1,1,1,1,1,1,13,9,9,9,9,9,9,9,
6,6,28,28,28,28,28,28,28,28,28,28,28,28,28,6,8,8,1,1,1,1,1,1,1,1,1,1,8,8,8,8,8,8,1,1,1,1,1,1,1,1,1,1,1,1,1,1,1,1,1,1,1,1,1,1,1,1,1,1,1,1,8,8,8,8,1,1,1,1,1,1,1,1,1,1,1,1,1,1,1,1,31,1,1,9,9,1,1,1,1,1,1,1,6,6,6,6,6,1,31,1,1,1,1,1,1,1,1,31,1,1,1,1,1,1,1,1,1,1,1,1,1,1,1,1,1,1,1,1,1,1,1,1,1,1,1,1,1,1,1,1,1,8,8,8,8,8,8,8,8,1,1,13,9,9,9,9,9,9,9,9,9,9,9,9,18,1,1,31,1,1,1,1,1,1,1,1,1,1,1,1,1,1,1,1,1,1,1,1,1,1,1,1,1,1,1,8,8,8,8,8,8,8,1,8,8,8,8,8,8,1,8,8,8,8,8,8,8,8,31,8,8,8,6,4,1,1,1,1,1,1,3,6,6,4,1,1,1,3,6,6,4,1,1,1,1,1,13,9,9,9,9,9,9,9,
6,6,28,28,28,28,28,28,28,28,28,28,28,28,6,6,8,8,8,8,8,8,8,8,8,8,1,1,8,8,8,8,8,8,8,8,1,1,8,8,1,1,1,1,1,1,8,8,8,8,8,8,1,1,8,1,1,1,8,1,8,1,8,8,8,8,8,1,1,8,8,8,8,1,1,8,8,1,6,6,1,1,1,1,1,9,9,1,1,1,4,1,4,1,6,6,6,6,6,8,8,8,8,8,8,8,8,8,8,8,8,8,8,8,8,8,8,8,8,8,8,8,8,8,8,8,8,8,8,8,8,1,8,1,8,1,1,8,1,8,1,8,1,8,8,8,8,8,8,8,8,1,1,13,9,9,9,9,9,9,9,9,9,9,9,9,18,1,1,1,1,8,8,8,1,8,8,1,8,1,1,1,8,1,8,1,8,8,1,8,8,8,8,8,8,8,1,8,8,8,8,8,8,8,1,8,8,8,8,8,8,1,8,8,8,8,8,8,8,8,1,8,8,8,6,6,4,4,4,4,3,4,6,6,6,6,4,4,4,6,6,6,6,4,4,1,1,1,13,9,9,9,9,9,9,9,
6,6,28,28,28,28,28,28,28,28,28,28,28,28,6,6,8,8,8,8,8,8,8,8,8,8,1,1,8,8,8,8,8,8,8,8,1,1,8,8,1,1,1,1,1,1,8,8,8,8,8,8,1,1,8,1,1,1,8,1,8,1,8,8,8,8,8,1,1,8,8,8,8,1,1,8,8,1,6,6,1,1,1,1,1,9,9,1,1,1,6,1,6,1,6,6,6,6,6,8,8,8,8,8,8,8,8,8,8,8,8,8,8,8,8,8,8,8,8,8,8,8,8,8,8,8,8,8,8,8,8,1,8,1,8,1,1,8,1,8,1,8,1,8,8,8,8,8,8,8,8,1,1,13,9,9,9,9,9,9,9,9,9,9,9,9,18,1,1,1,1,8,8,8,1,8,8,1,8,1,1,1,8,1,8,1,8,8,1,8,8,8,8,8,8,8,1,8,8,8,8,8,8,8,1,8,8,8,8,8,8,1,8,8,8,8,8,8,8,8,1,8,8,8,6,6,6,6,6,6,6,6,6,6,6,6,6,6,6,6,6,6,6,6,6,1,1,1,13,9,9,9,9,9,9,9,
8,8,1,1,1,1,1,1,1,1,1,1,1,1,8,8,8,8,8,8,8,8,8,8,8,8,1,1,8,8,8,8,8,8,8,8,1,1,8,8,1,1,1,1,1,1,8,8,8,8,8,8,1,1,8,1,1,1,8,1,8,1,8,8,6,6,6,1,1,6,6,6,6,1,1,6,6,1,6,6,1,1,1,1,1,9,9,1,31,1,6,1,6,1,6,6,6,6,6,6,6,6,6,6,6,6,6,6,6,6,6,6,6,6,6,6,6,6,6,6,6,6,6,6,6,6,6,6,6,6,8,1,8,1,8,1,1,8,1,8,1,8,1,8,8,8,8,8,8,8,8,1,1,13,9,9,9,9,9,9,9,9,9,9,9,9,18,1,1,1,1,8,8,8,1,8,8,1,8,1,31,1,8,1,8,1,8,8,1,8,8,8,8,8,8,8,1,8,8,8,8,8,8,8,1,8,8,8,8,8,8,1,8,8,8,8,8,8,8,8,1,8,8,8,8,8,8,8,8,8,8,8,8,8,8,8,8,8,8,8,6,6,6,6,6,1,1,1,13,9,9,9,9,9,9,9,
8,8,1,1,1,1,1,1,1,1,1,1,1,1,8,8,8,8,8,8,8,8,8,8,8,8,1,1,8,8,8,8,8,8,8,8,1,1,8,8,1,1,1,1,1,1,8,8,8,8,8,8,1,1,8,1,1,1,8,1,8,1,8,8,6,6,6,1,1,5,6,6,7,1,1,5,7,1,5,6,1,1,1,1,1,10,10,1,1,1,6,1,6,1,5,6,6,6,6,6,6,6,6,6,6,6,6,6,6,6,6,6,6,6,6,6,6,6,6,6,6,6,6,6,6,6,6,6,6,6,8,1,8,1,8,31,1,8,1,8,1,8,31,8,8,8,8,8,8,8,8,1,1,13,9,9,9,9,9,9,9,9,9,9,9,9,18,1,1,1,1,8,8,8,1,8,8,1,8,1,1,1,8,1,8,1,8,8,1,8,8,8,8,8,8,8,1,8,8,8,8,8,8,8,1,8,8,8,8,8,8,1,8,8,8,8,8,8,8,8,1,8,8,8,8,8,8,8,8,8,8,8,8,8,8,8,8,8,8,8,5,6,6,6,7,1,1,1,13,9,9,9,9,9,9,9,
8,8,1,1,1,1,1,1,1,1,1,1,1,1,8,8,8,8,8,8,8,8,8,8,8,8,1,1,8,8,8,8,8,8,8,8,1,1,1,8,1,1,31,1,1,1,8,8,8,8,1,1,1,1,1,1,1,1,1,1,1,1,1,8,6,6,7,1,1,1,1,1,1,1,1,1,1,1,1,1,1,1,1,1,1,9,9,1,1,1,1,1,1,1,31,1,1,1,1,1,1,1,1,1,1,1,1,1,1,1,5,6,6,7,1,1,1,1,1,1,1,5,7,1,1,1,5,6,6,7,1,1,1,1,1,1,1,1,1,1,1,1,1,8,8,8,1,1,1,1,1,1,1,13,9,9,9,9,9,9,9,9,9,9,9,9,18,1,1,1,1,1,1,1,1,1,1,1,1,1,1,1,1,1,1,1,1,1,1,1,8,8,8,8,8,8,1,8,8,1,1,1,1,1,1,1,1,1,1,1,1,1,1,1,1,1,1,1,1,1,1,8,8,8,8,8,1,1,1,1,1,1,1,1,1,1,1,1,1,1,1,1,1,1,1,1,1,1,13,9,9,9,9,9,9,9,
8,8,1,1,1,1,1,1,1,1,1,1,1,1,1,8,8,8,8,8,8,8,8,8,8,8,1,1,8,8,8,8,8,8,8,8,1,1,1,8,1,1,1,1,1,1,1,1,1,1,1,8,1,1,1,1,1,1,8,1,1,1,1,8,5,7,1,1,1,1,1,1,1,1,1,1,1,1,1,1,1,1,1,1,1,9,9,1,1,1,2,1,1,1,1,1,1,1,1,2,2,2,2,1,1,1,1,1,1,1,1,5,7,1,1,2,1,2,1,1,1,1,1,1,2,1,31,5,7,1,1,1,8,1,1,1,1,8,1,1,1,8,1,8,8,1,1,1,1,8,1,1,1,14,11,11,11,11,11,11,11,11,11,11,11,11,16,1,1,1,1,1,1,1,1,1,1,1,1,1,1,1,1,1,1,1,8,1,1,1,1,8,8,8,8,8,1,8,1,1,1,1,1,1,1,8,8,8,8,8,1,1,8,8,8,8,8,8,8,8,1,8,8,8,8,1,1,1,1,1,31,1,1,1,1,1,1,1,1,1,1,1,1,1,1,1,1,1,13,9,9,9,9,9,9,9,
8,8,1,1,1,31,1,1,1,31,1,1,1,1,1,1,1,1,1,1,1,1,1,1,1,1,1,1,1,1,1,1,1,1,1,1,1,1,1,8,1,1,1,1,1,1,1,1,1,1,1,1,1,1,8,1,1,1,1,1,8,1,1,1,1,1,1,1,1,1,8,1,1,1,1,1,1,1,1,1,1,1,1,1,1,10,10,1,1,1,1,1,2,1,1,1,1,1,1,1,1,1,1,1,2,2,2,1,1,1,1,1,1,1,1,1,1,1,1,1,1,1,1,1,1,1,1,1,1,1,8,1,1,1,1,1,1,1,1,1,1,1,1,1,1,1,8,1,1,1,1,1,1,1,1,1,1,1,1,1,1,1,1,1,1,1,1,1,1,1,1,1,8,1,1,1,1,1,8,1,1,1,8,1,8,1,1,1,1,1,1,1,1,1,1,1,1,8,1,1,1,1,1,1,1,8,8,8,8,8,1,31,8,8,8,8,8,8,8,8,1,1,1,1,1,1,8,8,8,1,1,1,1,8,8,1,8,1,8,1,1,1,1,1,1,1,31,1,13,9,9,9,9,9,9,9,
8,8,1,1,1,1,1,1,1,1,1,1,1,1,1,1,1,1,1,1,1,31,1,1,1,1,1,1,31,1,1,1,1,1,1,1,31,1,1,8,1,1,31,1,1,1,1,1,1,1,1,8,31,1,1,1,1,1,8,1,1,1,31,1,1,1,1,1,1,1,1,1,31,1,1,1,1,31,1,1,1,1,31,1,1,9,9,1,1,1,2,1,1,1,1,1,1,1,1,2,2,2,2,31,1,1,1,1,1,1,1,31,1,1,1,2,1,2,1,1,31,1,1,1,2,1,1,1,1,1,1,1,8,31,8,1,1,8,31,8,1,8,1,1,1,1,1,1,31,8,1,1,1,1,1,1,1,1,1,1,1,1,1,1,1,1,1,1,1,31,1,1,1,1,1,31,1,1,1,1,31,1,1,1,1,1,8,1,31,1,1,1,1,1,31,1,1,8,1,31,1,1,31,1,1,8,8,8,8,8,1,1,8,8,8,8,8,8,8,8,1,31,1,1,1,1,1,1,1,1,1,1,1,1,1,1,1,1,1,1,1,31,1,1,1,1,1,1,13,9,9,9,9,9,9,9,
8,8,1,1,1,1,1,1,1,1,1,1,1,1,1,1,1,1,1,1,1,1,1,1,1,1,1,1,1,1,1,1,1,1,1,1,1,1,1,8,1,1,1,1,1,1,1,1,1,1,1,1,1,1,8,1,1,1,1,1,8,1,1,1,1,1,1,1,1,1,8,1,1,1,1,1,1,1,1,1,1,1,1,1,1,9,9,1,1,1,1,1,2,1,1,1,1,1,1,1,1,1,1,1,2,2,2,1,1,1,1,1,1,1,1,1,1,1,1,1,1,1,1,1,1,1,1,1,1,1,8,1,1,1,1,1,1,1,1,1,1,1,1,1,1,1,8,1,1,1,1,1,1,1,1,31,1,1,1,1,1,1,31,1,1,1,1,1,1,1,1,1,8,1,1,1,1,1,8,1,1,1,8,1,8,1,1,1,1,1,1,1,1,1,1,1,1,8,1,1,1,1,1,1,1,8,8,8,8,8,1,1,8,8,8,8,8,8,8,8,8,8,8,8,1,1,8,8,8,1,8,8,1,8,8,1,8,1,8,1,1,1,1,1,1,1,1,1,13,9,9,9,9,9,9,9,
8,8,1,1,1,1,1,1,1,1,1,1,1,1,1,8,8,8,8,8,8,8,8,8,8,8,1,1,8,8,8,8,8,8,8,8,8,1,1,8,1,1,1,1,1,1,1,1,1,1,1,8,1,1,1,1,1,1,8,1,1,1,1,8,3,4,1,1,1,1,1,1,1,1,1,1,1,1,1,1,1,1,1,1,1,9,9,1,31,1,2,1,1,1,1,31,1,1,1,2,2,2,2,1,1,1,1,1,1,1,1,3,4,1,1,2,1,2,1,1,1,1,1,1,2,1,1,3,4,1,1,1,8,1,1,1,1,8,1,1,31,8,1,8,8,1,1,1,1,8,1,1,1,1,1,1,1,1,1,1,1,1,1,1,1,1,1,1,1,1,1,1,1,1,1,1,1,1,1,1,1,1,1,1,1,1,8,1,1,1,1,8,8,8,8,8,8,8,1,1,1,1,1,1,1,8,8,8,8,8,1,1,8,8,8,8,8,8,8,8,8,8,8,8,8,1,1,1,1,1,1,1,1,1,1,1,1,1,1,1,1,1,1,1,1,1,1,1,13,9,9,9,9,9,9,9,
8,8,1,1,1,1,1,1,1,1,1,1,1,1,8,8,8,8,8,8,8,8,8,8,8,8,1,1,8,8,8,8,8,8,8,8,8,1,1,8,1,1,1,1,1,1,8,8,8,8,1,1,1,1,1,1,1,1,1,1,1,1,8,8,6,6,4,1,1,1,1,1,1,1,1,1,1,1,1,1,1,1,1,1,1,9,9,1,1,1,1,1,1,1,1,1,1,1,1,1,1,1,1,1,1,1,1,1,1,1,3,6,6,4,1,1,1,1,1,1,1,1,1,1,1,1,3,6,6,4,1,1,1,1,1,31,1,1,1,1,1,1,1,8,8,8,1,1,1,1,1,1,1,1,1,1,1,1,1,1,1,1,1,1,1,1,1,1,1,1,1,1,1,1,1,1,1,1,1,1,1,1,1,1,1,1,1,1,1,1,8,8,8,8,8,8,8,8,8,1,1,1,1,1,1,1,1,1,1,1,1,1,8,8,8,8,8,8,8,8,8,8,8,8,8,8,1,1,1,1,1,1,1,1,1,1,1,1,1,1,1,1,1,1,1,1,1,1,13,9,9,9,9,9,9,9,
8,8,8,8,8,8,8,8,8,8,8,8,8,8,8,8,8,8,8,8,8,8,8,8,8,8,1,1,8,8,8,8,8,8,8,8,8,1,1,8,8,8,8,8,8,8,8,8,8,8,8,8,8,8,8,1,1,1,8,1,8,1,8,8,6,6,6,4,4,4,4,4,4,4,4,4,4,4,4,4,4,4,4,4,1,9,9,1,4,4,4,4,4,4,4,4,4,4,4,4,4,4,4,4,4,4,4,4,1,1,6,6,6,6,4,4,4,4,4,1,1,4,4,4,4,4,6,6,6,6,8,1,8,1,8,1,1,8,1,8,1,8,1,8,8,8,8,8,8,8,8,8,8,8,8,8,8,8,8,8,8,8,8,8,8,8,8,8,8,8,8,8,8,8,8,8,8,8,8,8,8,8,8,8,8,8,8,1,1,1,8,8,8,8,8,8,8,8,8,8,8,8,8,8,8,8,8,8,8,8,8,8,8,8,8,8,8,8,8,8,8,8,8,8,8,8,1,1,1,1,1,1,1,1,1,1,1,1,1,8,3,4,4,4,4,1,1,1,13,9,9,9,9,9,9,9,
8,8,8,8,8,8,8,8,8,8,8,8,8,8,8,8,8,8,8,8,8,8,8,8,8,8,1,1,8,8,8,8,8,8,8,8,8,1,1,8,8,8,8,8,8,8,8,8,8,8,8,8,8,8,8,1,1,1,8,1,8,1,8,8,6,6,6,6,6,6,6,6,6,6,6,6,6,6,6,6,6,6,6,6,1,9,9,1,6,6,6,6,6,6,6,6,6,6,6,6,6,6,6,6,6,6,6,6,1,1,6,6,6,6,6,6,6,6,6,1,1,6,6,6,6,6,6,6,6,6,8,1,8,1,8,1,1,8,1,8,1,8,1,8,8,8,8,8,8,8,8,8,8,8,8,8,8,8,8,8,8,8,8,8,8,8,8,8,8,8,8,8,8,8,8,8,8,8,8,8,8,8,8,8,8,8,8,1,1,1,8,8,8,8,8,8,8,8,8,8,8,8,8,8,8,8,8,8,8,8,8,8,8,8,8,8,8,8,8,8,8,8,8,8,8,8,8,8,8,8,8,8,8,8,8,8,8,8,8,8,6,6,6,6,6,1,1,1,13,9,9,9,9,9,9,9,
6,6,6,6,6,6,6,6,6,6,6,6,6,6,6,6,6,6,6,6,6,6,6,6,6,6,1,1,6,6,6,6,8,8,8,8,8,1,1,8,8,8,8,8,8,8,8,8,1,1,1,1,1,1,1,1,1,1,8,1,8,1,8,8,6,6,6,6,6,6,6,6,6,6,6,6,6,6,6,6,6,6,6,6,1,9,9,1,6,6,6,6,6,6,6,6,6,6,6,6,6,6,6,6,6,6,6,6,1,1,6,6,6,6,6,6,6,6,6,1,1,6,6,6,6,6,6,6,6,6,8,1,8,1,8,1,1,8,1,8,1,8,1,8,6,6,6,6,6,6,6,6,6,6,6,6,6,6,6,6,6,6,6,6,6,6,6,6,6,6,6,6,6,6,6,6,6,6,6,6,6,6,6,6,6,6,6,1,1,1,6,6,6,6,6,6,6,6,6,6,6,6,6,6,6,6,6,6,6,6,6,6,6,6,6,6,6,6,6,6,6,6,6,6,6,6,6,6,6,6,6,6,6,6,6,6,6,6,6,6,6,6,6,6,6,1,1,1,13,9,9,9,9,9,9,9,
6,6,6,6,6,6,6,6,6,6,6,6,6,6,6,6,6,6,6,7,5,6,6,6,6,7,1,1,5,6,6,6,8,8,8,8,8,1,1,8,8,8,8,8,8,8,8,8,1,1,1,1,1,1,1,1,1,1,8,1,8,1,8,8,6,6,6,6,6,6,6,6,6,6,6,6,6,6,6,6,6,6,6,7,1,9,9,1,5,6,6,6,6,6,6,6,6,6,6,6,6,6,6,6,6,6,6,7,1,1,6,6,6,6,6,6,6,6,7,1,1,6,6,6,6,6,6,6,6,6,8,1,8,1,8,1,1,8,1,8,1,8,1,8,5,6,6,6,6,6,7,5,6,6,6,6,6,6,6,6,6,6,6,6,6,6,6,5,7,6,6,6,6,6,6,6,6,6,6,6,6,6,6,6,6,6,6,1,1,1,6,6,6,6,6,6,6,6,6,6,6,6,6,6,6,6,6,6,6,6,6,6,6,6,6,6,6,6,6,6,6,6,6,6,6,6,6,6,6,6,6,6,6,6,6,6,6,6,6,6,6,6,6,6,6,1,1,1,13,9,9,9,9,9,9,9,
6,6,6,7,1,1,1,1,1,1,1,1,1,1,1,1,1,1,1,1,1,1,1,1,1,1,1,1,1,5,6,6,8,8,8,8,8,1,1,1,1,1,1,1,1,1,1,1,1,1,31,1,1,1,1,1,31,1,1,1,1,1,8,8,6,7,1,1,1,1,1,1,1,1,1,1,1,1,5,6,6,7,1,1,1,9,9,1,1,1,1,1,1,1,1,1,1,1,1,1,1,1,1,1,1,1,1,1,1,1,5,6,6,6,6,7,1,1,1,1,1,6,6,6,6,6,6,6,6,6,1,1,1,1,1,1,1,1,1,1,1,1,1,1,1,5,6,6,6,6,1,1,1,1,1,31,5,6,6,6,6,6,6,7,5,7,7,1,31,5,6,6,6,6,6,6,6,6,6,6,6,6,7,1,1,1,1,1,1,1,1,1,1,1,1,1,1,1,1,1,1,1,1,1,31,1,1,1,1,1,1,1,1,1,1,1,31,1,1,1,1,1,1,1,1,1,6,6,6,6,6,6,6,6,6,6,6,6,6,6,6,6,6,6,6,1,1,31,13,9,9,9,9,9,9,9,
6,6,7,1,8,8,1,8,8,1,1,1,1,1,1,1,1,1,1,1,1,31,1,1,1,1,1,1,1,1,5,7,8,8,8,8,8,8,8,8,8,8,8,8,8,8,8,8,8,8,8,8,8,8,8,1,1,1,1,1,1,1,1,8,7,1,1,1,1,1,1,21,22,23,1,1,1,1,1,6,6,1,1,1,1,9,9,1,1,1,2,1,1,1,2,1,1,1,1,31,1,1,1,1,2,1,1,1,1,1,1,6,6,6,7,1,1,1,1,1,1,6,6,6,6,6,6,6,7,1,1,1,1,1,8,1,1,8,1,8,1,8,1,1,1,1,5,6,6,6,1,1,1,1,1,1,1,6,6,6,6,6,7,1,1,1,1,1,1,1,6,6,6,6,6,6,6,6,6,6,6,7,1,1,1,1,1,1,31,1,1,1,1,1,1,1,1,1,1,1,1,1,1,1,1,1,1,1,1,1,1,1,1,1,1,1,1,1,1,1,1,1,1,1,1,1,5,6,7,5,6,6,6,7,5,6,7,5,7,5,7,5,6,6,7,1,1,1,13,9,9,9,9,9,9,9,
6,6,1,1,8,8,1,8,8,1,1,1,1,1,1,1,1,1,1,1,1,1,1,1,1,1,1,1,1,1,1,1,1,1,8,8,8,8,8,8,8,8,8,8,8,8,8,8,8,8,8,8,8,8,8,1,1,1,1,1,1,8,1,1,1,1,1,1,8,1,8,24,25,26,8,1,8,1,1,5,7,1,1,1,1,9,9,1,31,1,1,1,2,1,1,1,1,1,1,1,1,1,1,1,1,1,2,1,1,1,1,5,6,7,1,1,1,1,1,1,1,5,6,6,6,6,6,7,1,1,8,1,8,1,1,1,1,1,1,1,1,1,1,1,1,1,1,5,6,6,1,1,1,1,1,1,1,5,6,6,7,1,1,1,1,1,1,1,1,1,5,7,5,7,5,6,6,7,5,6,7,1,1,1,1,1,1,1,1,1,1,1,1,1,1,1,1,1,1,31,1,1,1,1,1,1,1,1,1,1,1,1,1,1,1,1,1,1,1,1,1,1,1,1,1,1,1,1,1,1,1,1,1,1,1,1,1,1,1,1,1,1,1,1,1,1,1,1,13,9,9,9,9,9,9,9,
6,6,1,31,1,1,1,1,1,1,1,31,1,1,1,1,1,31,1,1,1,1,1,1,1,1,1,31,1,1,1,1,31,1,1,1,8,8,8,8,8,8,8,8,8,8,8,8,8,8,8,8,8,8,8,1,1,1,1,1,1,1,1,1,1,31,1,1,1,1,1,1,1,1,1,1,1,1,31,1,1,1,1,1,1,9,9,1,1,1,2,1,1,1,2,1,1,1,2,1,1,2,1,1,2,1,1,1,1,1,1,1,1,1,1,1,1,1,1,1,1,1,1,1,1,1,1,1,1,1,1,1,31,1,8,1,1,8,31,8,1,8,1,31,1,1,1,1,5,7,1,1,31,1,1,1,1,1,1,31,1,1,1,1,1,1,1,31,1,1,1,1,1,1,31,1,1,1,1,1,1,1,1,31,1,1,1,1,1,1,1,1,1,1,1,1,1,1,1,1,1,1,1,1,1,1,1,1,1,1,31,1,1,1,1,1,1,1,1,1,1,1,1,31,1,1,1,1,1,1,1,1,1,1,1,1,1,1,1,1,1,1,1,1,1,1,1,1,13,9,9,9,9,9,9,9,
6,6,1,1,1,8,8,1,8,8,1,1,1,1,1,1,1,1,1,1,1,1,1,1,1,1,1,1,1,1,1,1,1,1,1,1,8,8,8,8,8,8,8,8,8,8,8,8,8,8,8,8,8,8,8,1,31,1,1,1,31,1,1,1,1,1,1,1,8,1,8,1,1,1,8,1,8,1,1,1,1,1,1,1,1,9,9,1,1,1,1,1,2,1,1,1,1,1,1,1,1,1,1,1,1,1,2,1,1,1,1,1,1,1,1,1,1,1,1,1,1,1,1,1,1,1,3,4,1,1,8,1,8,1,1,1,1,1,1,1,1,1,1,1,1,1,1,1,1,1,1,1,1,1,1,1,3,4,4,4,4,3,4,1,1,1,1,1,1,1,3,4,3,4,3,4,4,4,3,4,4,1,1,15,12,12,12,12,12,12,12,12,12,12,12,12,12,12,12,12,12,12,12,12,12,12,12,12,12,12,12,12,12,12,12,12,12,12,12,12,12,12,12,12,12,12,12,12,12,12,12,12,12,12,12,12,12,12,12,12,12,12,12,12,12,12,12,12,9,9,9,9,9,9,9,9,
6,6,4,1,1,8,8,1,8,8,1,1,1,1,1,1,1,1,1,1,1,31,1,1,1,1,1,1,1,1,3,4,8,8,1,1,8,8,8,8,8,8,8,8,8,8,8,8,8,8,8,8,8,8,8,1,1,1,1,1,1,1,1,8,4,1,1,1,1,1,1,1,31,1,1,1,1,1,1,3,4,1,1,1,1,9,9,1,31,1,2,1,1,1,2,1,1,1,1,1,31,1,1,1,2,1,1,1,1,1,1,3,4,4,1,1,1,1,1,1,1,1,1,1,1,3,6,6,4,1,1,1,1,1,8,1,1,8,1,8,1,8,1,1,1,1,1,1,1,1,1,1,1,1,1,31,6,6,6,6,6,6,6,4,1,1,1,1,1,1,6,6,6,6,6,6,6,6,6,6,6,4,1,13,9,9,9,9,9,9,9,9,9,9,9,9,9,9,9,9,9,9,9,9,9,9,9,9,9,9,9,9,9,9,9,9,9,9,9,9,9,9,9,9,9,9,9,9,9,9,9,9,9,9,9,9,9,9,9,9,9,9,9,9,9,9,9,9,9,9,9,9,9,9,9,9,
6,6,6,4,1,1,1,1,1,1,1,1,1,1,1,1,1,1,1,1,1,1,1,1,1,1,1,1,1,3,6,6,8,8,1,1,1,1,1,1,1,1,1,1,1,1,1,1,1,1,1,1,1,1,1,1,1,1,1,1,1,1,8,8,6,4,1,1,1,1,1,1,1,1,1,1,1,1,3,6,6,4,1,1,1,9,9,1,1,1,1,1,1,1,1,1,1,1,1,1,1,1,1,1,1,1,1,1,1,1,3,6,6,6,1,1,1,1,1,1,1,1,1,1,3,6,6,6,6,4,1,1,1,1,1,1,1,1,1,1,1,1,1,1,1,1,1,1,3,4,1,1,1,1,1,3,6,6,6,6,6,6,6,6,4,3,4,1,31,3,6,6,6,6,6,6,6,6,6,6,6,6,4,13,9,9,9,9,9,9,9,9,9,9,9,9,9,9,9,9,9,9,9,9,9,9,9,9,9,9,9,9,9,9,9,9,9,9,9,9,9,9,9,9,9,9,9,9,9,9,9,9,9,9,9,9,9,9,9,9,9,9,9,9,9,9,9,9,9,9,9,9,9,9,9,9,
6,6,6,6,4,4,4,4,4,4,4,4,4,4,4,4,4,4,4,4,4,4,4,4,4,4,4,4,4,6,6,6,8,8,8,8,8,8,8,8,8,8,8,8,8,8,8,8,8,8,8,8,8,8,8,8,8,8,8,8,8,8,8,8,6,6,6,6,6,6,6,6,6,6,6,6,6,6,6,6,6,6,4,4,4,9,9,4,4,4,4,4,4,4,4,4,4,4,4,4,4,4,4,4,4,4,4,4,4,4,6,6,6,6,4,4,4,4,4,4,4,4,4,4,6,6,6,6,6,6,8,8,8,8,8,8,8,8,8,8,8,8,8,8,3,4,4,4,6,6,4,3,4,4,4,6,6,6,6,6,6,6,6,6,6,6,6,3,4,6,6,6,6,6,6,6,6,6,6,6,6,6,6,13,9,9,9,9,9,9,9,9,9,9,9,9,9,9,9,9,9,9,9,9,9,9,9,9,9,9,9,9,9,9,9,9,9,9,9,9,9,9,9,9,9,9,9,9,9,9,9,9,9,9,9,9,9,9,9,9,9,9,9,9,9,9,9,9,9,9,9,9,9,9,9,9,
6,6,6,6,6,6,6,6,6,6,6,6,6,6,6,6,6,6,6,6,6,6,6,6,6,6,6,6,6,6,6,6,8,8,8,8,8,8,8,8,8,8,8,8,8,8,8,8,8,8,8,8,8,8,8,8,8,8,8,8,8,8,8,8,6,6,6,6,6,6,6,6,6,6,6,6,6,6,6,6,6,6,6,6,6,9,9,6,6,6,6,6,6,6,6,6,6,6,6,6,6,6,6,6,6,6,6,6,6,6,6,6,6,6,6,6,6,6,6,6,6,6,6,6,6,6,6,6,6,6,8,8,8,8,8,8,8,8,8,8,8,8,8,8,6,6,6,6,6,6,6,6,6,6,6,6,6,6,6,6,6,6,6,6,6,6,6,6,6,6,6,6,6,6,6,6,6,6,6,6,6,6,6,9,9,9,9,9,9,9,9,9,9,9,9,9,9,9,9,9,9,9,9,9,9,9,9,9,9,9,9,9,9,9,9,9,9,9,9,9,9,9,9,9,9,9,9,9,9,9,9,9,9,9,9,9,9,9,9,9,9,9,9,9,9,9,9,9,9,9,9,9,9,9,9,9
</data>
 </layer>
</map>
